(/Applications/EAGLE/ulp/pcb-gcode.ulp)
(Copyright 2005 - 2009 by John Johnson)
(See readme.txt for licensing terms.)
(This file generated from the board:)
(.../Documents/eagle/CNC/A4982_R5.brd)
(Current profile is .../EAGLE/ulp/profiles/generic.pp  )
(This file generated 6/21/11 6:58 PM)
(Settings from pcb-machine.h)
(  Tool Size)
(0.0020 )
(Z Axis Settings)
(  High     Up        Down     Drill)
(1.2500 	0.0200 	-0.0030 	-0.1000 )
(spindle on time = 3.0000)
(milling depth = -0.0030)
(text depth = -0.0050)
(tool change at 0.0000 0.0000 1.2500 )
(feed rate xy = F8.00  )
(feed rate z  = F8.00  )
(Settings from pcb-defaults.h)
(Default isolate = 0.0020)
(isolate max = 0.0200)
(isolate step = 0.0040)
(Generated bottom outlines, bottom drill, )
(Unit of measure: inch)
(Inch Mode)
G20
(Absolute Coordinates)
G90
G00 X0.0000 Y0.0000 
M03
G04 P3.000000
G00 Z0.0200 
G00 X-0.9758 Y0.1911 
G01 Z-0.0030 F8.00  
G01 X-0.9758 Y0.1866 F8.00  
G01 X-0.9697 Y0.1897 
G01 X-0.9687 Y0.1902 
G01 X-0.9684 Y0.1903 
G01 X-0.9681 Y0.1905 
G01 X-0.9669 Y0.1907 
G01 X-0.9658 Y0.1910 
G01 X-0.9655 Y0.1910 
G01 X-0.9653 Y0.1911 
G01 X-0.9758 Y0.1911 
G00 Z0.0200 
G00 X-0.9576 Y0.1450 
G01 Z-0.0030 F8.00  
G01 X-0.9528 Y0.1498 F8.00  
G01 X-0.9528 Y0.1633 
G01 X-0.9576 Y0.1680 
G01 X-0.9616 Y0.1680 
G01 X-0.9819 Y0.1579 
G01 X-0.9829 Y0.1573 
G01 X-0.9832 Y0.1572 
G01 X-0.9835 Y0.1571 
G01 X-0.9847 Y0.1568 
G01 X-0.9858 Y0.1565 
G01 X-0.9861 Y0.1565 
G01 X-0.9863 Y0.1565 
G01 X-0.9858 Y0.1565 
G01 X-0.9829 Y0.1557 
G01 X-0.9803 Y0.1542 
G01 X-0.9710 Y0.1450 
G01 X-0.9576 Y0.1450 
G00 Z0.0200 
G00 X-1.0320 Y0.1728 
G01 Z-0.0030 F8.00  
G01 X-1.0320 Y0.1863 F8.00  
G01 X-1.0367 Y0.1911 
G01 X-1.0550 Y0.1911 
G01 X-1.0550 Y0.1680 
G01 X-1.0450 Y0.1680 
G01 X-1.0420 Y0.1680 
G01 X-1.0367 Y0.1680 
G01 X-1.0320 Y0.1728 
G00 Z0.0200 
G00 X-0.9264 Y0.1351 
G01 Z-0.0030 F8.00  
G01 X-0.9238 Y0.1415 F8.00  
G01 X-0.9238 Y0.1553 
G01 X-0.9238 Y0.1715 
G01 X-0.9250 Y0.1744 
G01 X-0.9267 Y0.1786 
G01 X-0.9273 Y0.1815 
G01 X-0.9276 Y0.1830 
G01 X-0.9276 Y0.1876 
G01 X-0.9272 Y0.1893 
G01 X-0.9267 Y0.1920 
G01 X-0.9262 Y0.1933 
G01 X-0.9238 Y0.1991 
G01 X-0.9238 Y0.2060 
G01 X-0.9264 Y0.2125 
G01 X-0.9314 Y0.2174 
G01 X-0.9378 Y0.2201 
G01 X-0.9815 Y0.2201 
G01 X-0.9908 Y0.2201 
G01 X-0.9987 Y0.2168 
G01 X-1.0029 Y0.2150 
G01 X-1.0064 Y0.2143 
G01 X-1.0074 Y0.2141 
G01 X-1.0119 Y0.2141 
G01 X-1.0127 Y0.2143 
G01 X-1.0163 Y0.2150 
G01 X-1.0205 Y0.2168 
G01 X-1.0285 Y0.2201 
G01 X-1.0423 Y0.2201 
G01 X-1.0700 Y0.2201 
G01 X-1.0764 Y0.2174 
G01 X-1.0813 Y0.2125 
G01 X-1.0840 Y0.2060 
G01 X-1.0840 Y0.1968 
G01 X-1.0840 Y0.1623 
G01 X-1.0840 Y0.1462 
G01 X-1.0840 Y0.1300 
G01 X-1.0813 Y0.1236 
G01 X-1.0764 Y0.1187 
G01 X-1.0700 Y0.1160 
G01 X-1.0630 Y0.1160 
G01 X-1.0543 Y0.1196 
G01 X-1.0539 Y0.1199 
G01 X-1.0523 Y0.1205 
G01 X-1.0508 Y0.1212 
G01 X-1.0502 Y0.1213 
G01 X-1.0496 Y0.1215 
G01 X-1.0480 Y0.1218 
G01 X-1.0463 Y0.1222 
G01 X-1.0458 Y0.1222 
G01 X-1.0452 Y0.1223 
G01 X-1.0435 Y0.1222 
G01 X-1.0418 Y0.1223 
G01 X-1.0412 Y0.1222 
G01 X-1.0406 Y0.1222 
G01 X-1.0390 Y0.1218 
G01 X-1.0373 Y0.1215 
G01 X-1.0368 Y0.1213 
G01 X-1.0362 Y0.1212 
G01 X-1.0347 Y0.1205 
G01 X-1.0331 Y0.1199 
G01 X-1.0326 Y0.1196 
G01 X-1.0239 Y0.1160 
G01 X-1.0170 Y0.1160 
G01 X-1.0090 Y0.1193 
G01 X-1.0048 Y0.1210 
G01 X-1.0022 Y0.1215 
G01 X-1.0004 Y0.1219 
G01 X-0.9959 Y0.1219 
G01 X-0.9944 Y0.1216 
G01 X-0.9914 Y0.1210 
G01 X-0.9872 Y0.1193 
G01 X-0.9793 Y0.1160 
G01 X-0.9655 Y0.1160 
G01 X-0.9493 Y0.1160 
G01 X-0.9429 Y0.1187 
G01 X-0.9331 Y0.1284 
G01 X-0.9264 Y0.1351 
G00 Z0.0200 
G00 X-1.0550 Y0.1320 
G01 Z-0.0030 F8.00  
G01 X-1.0558 Y0.1291 F8.00  
G01 X-1.0573 Y0.1264 
G01 X-1.0594 Y0.1243 
G01 X-1.0621 Y0.1228 
G01 X-1.0650 Y0.1220 
G01 X-1.0680 Y0.1220 
G01 X-1.0709 Y0.1228 
G01 X-1.0736 Y0.1243 
G01 X-1.0757 Y0.1264 
G01 X-1.0772 Y0.1291 
G01 X-1.0780 Y0.1320 
G01 X-1.0780 Y0.1550 
G01 X-1.0780 Y0.1580 
G01 X-1.0780 Y0.2010 
G01 X-1.0780 Y0.2041 
G01 X-1.0772 Y0.2070 
G01 X-1.0757 Y0.2096 
G01 X-1.0736 Y0.2118 
G01 X-1.0709 Y0.2133 
G01 X-1.0680 Y0.2141 
G01 X-1.0335 Y0.2141 
G01 X-1.0305 Y0.2141 
G01 X-1.0275 Y0.2133 
G01 X-1.0249 Y0.2118 
G01 X-1.0134 Y0.2002 
G01 X-1.0113 Y0.1981 
G01 X-1.0097 Y0.1955 
G01 X-1.0090 Y0.1926 
G01 X-1.0090 Y0.1695 
G01 X-1.0090 Y0.1665 
G01 X-1.0097 Y0.1636 
G01 X-1.0113 Y0.1610 
G01 X-1.0215 Y0.1508 
G01 X-1.0113 Y0.1406 
G01 X-1.0097 Y0.1379 
G01 X-1.0090 Y0.1350 
G01 X-1.0090 Y0.1320 
G01 X-1.0097 Y0.1291 
G01 X-1.0113 Y0.1264 
G01 X-1.0134 Y0.1243 
G01 X-1.0160 Y0.1228 
G01 X-1.0189 Y0.1220 
G01 X-1.0220 Y0.1220 
G01 X-1.0249 Y0.1228 
G01 X-1.0275 Y0.1243 
G01 X-1.0482 Y0.1450 
G01 X-1.0550 Y0.1450 
G01 X-1.0550 Y0.1320 
G00 Z0.0200 
G00 X-0.9398 Y0.2141 
G01 Z-0.0030 F8.00  
G01 X-0.9368 Y0.2133 F8.00  
G01 X-0.9342 Y0.2118 
G01 X-0.9321 Y0.2096 
G01 X-0.9306 Y0.2070 
G01 X-0.9298 Y0.2041 
G01 X-0.9298 Y0.2010 
G01 X-0.9306 Y0.1981 
G01 X-0.9321 Y0.1955 
G01 X-0.9342 Y0.1934 
G01 X-0.9368 Y0.1918 
G01 X-0.9398 Y0.1911 
G01 X-0.9644 Y0.1911 
G01 X-0.9639 Y0.1910 
G01 X-0.9543 Y0.1910 
G01 X-0.9513 Y0.1910 
G01 X-0.9483 Y0.1902 
G01 X-0.9457 Y0.1887 
G01 X-0.9342 Y0.1772 
G01 X-0.9321 Y0.1751 
G01 X-0.9306 Y0.1725 
G01 X-0.9298 Y0.1695 
G01 X-0.9298 Y0.1465 
G01 X-0.9298 Y0.1435 
G01 X-0.9306 Y0.1406 
G01 X-0.9321 Y0.1379 
G01 X-0.9436 Y0.1264 
G01 X-0.9457 Y0.1243 
G01 X-0.9483 Y0.1228 
G01 X-0.9513 Y0.1220 
G01 X-0.9743 Y0.1220 
G01 X-0.9773 Y0.1220 
G01 X-0.9802 Y0.1228 
G01 X-0.9829 Y0.1243 
G01 X-0.9965 Y0.1379 
G01 X-0.9980 Y0.1406 
G01 X-0.9988 Y0.1435 
G01 X-0.9988 Y0.1465 
G01 X-0.9980 Y0.1494 
G01 X-0.9965 Y0.1521 
G01 X-0.9944 Y0.1542 
G01 X-0.9918 Y0.1557 
G01 X-0.9888 Y0.1565 
G01 X-0.9872 Y0.1565 
G01 X-0.9877 Y0.1565 
G01 X-0.9888 Y0.1565 
G01 X-0.9892 Y0.1566 
G01 X-0.9895 Y0.1566 
G01 X-0.9906 Y0.1570 
G01 X-0.9918 Y0.1573 
G01 X-0.9920 Y0.1575 
G01 X-0.9924 Y0.1576 
G01 X-0.9934 Y0.1582 
G01 X-0.9944 Y0.1588 
G01 X-0.9946 Y0.1591 
G01 X-0.9949 Y0.1593 
G01 X-0.9957 Y0.1601 
G01 X-0.9965 Y0.1610 
G01 X-0.9967 Y0.1613 
G01 X-0.9969 Y0.1615 
G01 X-0.9974 Y0.1626 
G01 X-0.9980 Y0.1636 
G01 X-0.9981 Y0.1639 
G01 X-0.9983 Y0.1642 
G01 X-0.9985 Y0.1654 
G01 X-0.9988 Y0.1665 
G01 X-0.9988 Y0.1669 
G01 X-0.9989 Y0.1672 
G01 X-0.9988 Y0.1684 
G01 X-0.9988 Y0.2041 
G01 X-0.9980 Y0.2070 
G01 X-0.9965 Y0.2096 
G01 X-0.9944 Y0.2118 
G01 X-0.9918 Y0.2133 
G01 X-0.9888 Y0.2141 
G01 X-0.9858 Y0.2141 
G01 X-0.9398 Y0.2141 
G00 Z0.0200 
G00 X-1.0859 Y0.4479 
G01 Z-0.0030 F8.00  
G01 X-1.0870 Y0.4474 F8.00  
G01 X-1.0973 Y0.4474 
G01 X-1.0971 Y0.4462 
G01 X-1.0971 Y0.4434 
G01 X-1.0869 Y0.4434 
G01 X-1.0856 Y0.4437 
G01 X-1.0843 Y0.4442 
G01 X-1.0831 Y0.4450 
G01 X-1.0822 Y0.4459 
G01 X-1.0814 Y0.4471 
G01 X-1.0809 Y0.4483 
G01 X-1.0855 Y0.4483 
G01 X-1.0859 Y0.4479 
G00 Z0.0200 
G00 X-1.7017 Y0.6837 
G01 Z-0.0030 F8.00  
G01 X-1.7042 Y0.6800 F8.00  
G01 X-1.7074 Y0.6768 
G01 X-1.7111 Y0.6742 
G01 X-1.7153 Y0.6725 
G01 X-1.7198 Y0.6716 
G01 X-1.7243 Y0.6716 
G01 X-1.7288 Y0.6725 
G01 X-1.7329 Y0.6742 
G01 X-1.7367 Y0.6768 
G01 X-1.7467 Y0.6867 
G01 X-1.7469 Y0.6870 
G01 X-1.7482 Y0.6870 
G01 X-1.7546 Y0.6883 
G01 X-1.7606 Y0.6908 
G01 X-1.7660 Y0.6944 
G01 X-1.7823 Y0.7107 
G01 X-1.7867 Y0.7115 
G01 X-1.7939 Y0.7146 
G01 X-1.8005 Y0.7189 
G01 X-1.8061 Y0.7245 
G01 X-1.8077 Y0.7270 
G01 X-1.8125 Y0.7270 
G01 X-1.8116 Y0.7255 
G01 X-1.8082 Y0.7209 
G01 X-1.8064 Y0.7192 
G01 X-1.8033 Y0.7161 
G01 X-1.8008 Y0.7123 
G01 X-1.7998 Y0.7099 
G01 X-1.7990 Y0.7081 
G01 X-1.7982 Y0.7037 
G01 X-1.7982 Y0.6991 
G01 X-1.7983 Y0.6983 
G01 X-1.7990 Y0.6947 
G01 X-1.8001 Y0.6922 
G01 X-1.8008 Y0.6905 
G01 X-1.8024 Y0.6880 
G01 X-1.8033 Y0.6867 
G01 X-1.8065 Y0.6835 
G01 X-1.8140 Y0.6761 
G01 X-1.8210 Y0.6591 
G01 X-1.8210 Y0.6408 
G01 X-1.8140 Y0.6239 
G01 X-1.8079 Y0.6178 
G01 X-1.8047 Y0.6147 
G01 X-1.8022 Y0.6109 
G01 X-1.8012 Y0.6085 
G01 X-1.8005 Y0.6067 
G01 X-1.7996 Y0.6023 
G01 X-1.7996 Y0.5977 
G01 X-1.7997 Y0.5969 
G01 X-1.8005 Y0.5933 
G01 X-1.8015 Y0.5908 
G01 X-1.8022 Y0.5891 
G01 X-1.8038 Y0.5866 
G01 X-1.8047 Y0.5853 
G01 X-1.8079 Y0.5821 
G01 X-1.8140 Y0.5761 
G01 X-1.8210 Y0.5591 
G01 X-1.8210 Y0.5408 
G01 X-1.8140 Y0.5239 
G01 X-1.8033 Y0.5132 
G01 X-1.8025 Y0.5120 
G01 X-1.8008 Y0.5095 
G01 X-1.8000 Y0.5077 
G01 X-1.7990 Y0.5053 
G01 X-1.7983 Y0.5018 
G01 X-1.7982 Y0.5009 
G01 X-1.7982 Y0.4963 
G01 X-1.7990 Y0.4919 
G01 X-1.7997 Y0.4902 
G01 X-1.8008 Y0.4877 
G01 X-1.8033 Y0.4839 
G01 X-1.8065 Y0.4807 
G01 X-1.8082 Y0.4791 
G01 X-1.8116 Y0.4745 
G01 X-1.8125 Y0.4730 
G01 X-1.8077 Y0.4730 
G01 X-1.8061 Y0.4755 
G01 X-1.8005 Y0.4811 
G01 X-1.7939 Y0.4854 
G01 X-1.7867 Y0.4885 
G01 X-1.7823 Y0.4893 
G01 X-1.7660 Y0.5056 
G01 X-1.7606 Y0.5092 
G01 X-1.7546 Y0.5117 
G01 X-1.7482 Y0.5130 
G01 X-1.7469 Y0.5130 
G01 X-1.7467 Y0.5132 
G01 X-1.7435 Y0.5164 
G01 X-1.7367 Y0.5232 
G01 X-1.7329 Y0.5258 
G01 X-1.7288 Y0.5275 
G01 X-1.7243 Y0.5284 
G01 X-1.7198 Y0.5284 
G01 X-1.7153 Y0.5275 
G01 X-1.7111 Y0.5258 
G01 X-1.7074 Y0.5232 
G01 X-1.7042 Y0.5200 
G01 X-1.7017 Y0.5163 
G01 X-1.7003 Y0.5130 
G01 X-1.6950 Y0.5130 
G01 X-1.6950 Y0.5337 
G01 X-1.6946 Y0.5348 
G01 X-1.6937 Y0.5357 
G01 X-1.6926 Y0.5361 
G01 X-1.6206 Y0.5361 
G01 X-1.6195 Y0.5357 
G01 X-1.6186 Y0.5348 
G01 X-1.6182 Y0.5337 
G01 X-1.6182 Y0.5030 
G01 X-1.6142 Y0.5030 
G01 X-1.6142 Y0.5253 
G01 X-1.6133 Y0.5297 
G01 X-1.6116 Y0.5339 
G01 X-1.6090 Y0.5377 
G01 X-1.6058 Y0.5409 
G01 X-1.6021 Y0.5434 
G01 X-1.5979 Y0.5451 
G01 X-1.5934 Y0.5460 
G01 X-1.5889 Y0.5460 
G01 X-1.5531 Y0.5460 
G01 X-1.5485 Y0.5460 
G01 X-1.5441 Y0.5451 
G01 X-1.5399 Y0.5434 
G01 X-1.5362 Y0.5409 
G01 X-1.5329 Y0.5377 
G01 X-1.5304 Y0.5339 
G01 X-1.5287 Y0.5297 
G01 X-1.5278 Y0.5253 
G01 X-1.5278 Y0.4247 
G01 X-1.5287 Y0.4203 
G01 X-1.5304 Y0.4161 
G01 X-1.5329 Y0.4123 
G01 X-1.5362 Y0.4091 
G01 X-1.5399 Y0.4066 
G01 X-1.5441 Y0.4049 
G01 X-1.5485 Y0.4040 
G01 X-1.5531 Y0.4040 
G01 X-1.5934 Y0.4040 
G01 X-1.5979 Y0.4049 
G01 X-1.6021 Y0.4066 
G01 X-1.6058 Y0.4091 
G01 X-1.6090 Y0.4123 
G01 X-1.6116 Y0.4161 
G01 X-1.6133 Y0.4203 
G01 X-1.6142 Y0.4247 
G01 X-1.6142 Y0.4293 
G01 X-1.6142 Y0.4570 
G01 X-1.6182 Y0.4570 
G01 X-1.6182 Y0.4263 
G01 X-1.6186 Y0.4251 
G01 X-1.6195 Y0.4243 
G01 X-1.6206 Y0.4239 
G01 X-1.6926 Y0.4239 
G01 X-1.6937 Y0.4243 
G01 X-1.6946 Y0.4251 
G01 X-1.6950 Y0.4263 
G01 X-1.6950 Y0.4470 
G01 X-1.7313 Y0.4470 
G01 X-1.7357 Y0.4426 
G01 X-1.7365 Y0.4383 
G01 X-1.7396 Y0.4311 
G01 X-1.7439 Y0.4245 
G01 X-1.7495 Y0.4189 
G01 X-1.7561 Y0.4146 
G01 X-1.7633 Y0.4115 
G01 X-1.7711 Y0.4100 
G01 X-1.7789 Y0.4100 
G01 X-1.7867 Y0.4115 
G01 X-1.7939 Y0.4146 
G01 X-1.8005 Y0.4189 
G01 X-1.8061 Y0.4245 
G01 X-1.8077 Y0.4270 
G01 X-1.8125 Y0.4270 
G01 X-1.8116 Y0.4255 
G01 X-1.8082 Y0.4209 
G01 X-1.8064 Y0.4192 
G01 X-1.8033 Y0.4161 
G01 X-1.8008 Y0.4123 
G01 X-1.7998 Y0.4099 
G01 X-1.7990 Y0.4081 
G01 X-1.7982 Y0.4037 
G01 X-1.7982 Y0.3991 
G01 X-1.7983 Y0.3983 
G01 X-1.7990 Y0.3947 
G01 X-1.8001 Y0.3922 
G01 X-1.8008 Y0.3905 
G01 X-1.8024 Y0.3880 
G01 X-1.8033 Y0.3867 
G01 X-1.8065 Y0.3835 
G01 X-1.8140 Y0.3761 
G01 X-1.8210 Y0.3591 
G01 X-1.8210 Y0.3408 
G01 X-1.8140 Y0.3239 
G01 X-1.8079 Y0.3178 
G01 X-1.8047 Y0.3147 
G01 X-1.8022 Y0.3109 
G01 X-1.8012 Y0.3085 
G01 X-1.8005 Y0.3067 
G01 X-1.7996 Y0.3023 
G01 X-1.7996 Y0.2977 
G01 X-1.7997 Y0.2969 
G01 X-1.8005 Y0.2933 
G01 X-1.8015 Y0.2908 
G01 X-1.8022 Y0.2891 
G01 X-1.8038 Y0.2866 
G01 X-1.8047 Y0.2853 
G01 X-1.8079 Y0.2821 
G01 X-1.8140 Y0.2761 
G01 X-1.8210 Y0.2591 
G01 X-1.8210 Y0.2408 
G01 X-1.8140 Y0.2239 
G01 X-1.8033 Y0.2132 
G01 X-1.8025 Y0.2120 
G01 X-1.8008 Y0.2095 
G01 X-1.8000 Y0.2077 
G01 X-1.7990 Y0.2053 
G01 X-1.7983 Y0.2018 
G01 X-1.7982 Y0.2009 
G01 X-1.7982 Y0.1963 
G01 X-1.7990 Y0.1919 
G01 X-1.7997 Y0.1902 
G01 X-1.8008 Y0.1877 
G01 X-1.8033 Y0.1839 
G01 X-1.8065 Y0.1807 
G01 X-1.8082 Y0.1791 
G01 X-1.8116 Y0.1745 
G01 X-1.8125 Y0.1730 
G01 X-1.8077 Y0.1730 
G01 X-1.8061 Y0.1755 
G01 X-1.8005 Y0.1811 
G01 X-1.7939 Y0.1854 
G01 X-1.7867 Y0.1885 
G01 X-1.7789 Y0.1900 
G01 X-1.7711 Y0.1900 
G01 X-1.7633 Y0.1885 
G01 X-1.7561 Y0.1854 
G01 X-1.7495 Y0.1811 
G01 X-1.7439 Y0.1755 
G01 X-1.7423 Y0.1730 
G01 X-1.7375 Y0.1730 
G01 X-1.7383 Y0.1744 
G01 X-1.7384 Y0.1746 
G01 X-1.7393 Y0.1758 
G01 X-1.7397 Y0.1765 
G01 X-1.7401 Y0.1771 
G01 X-1.7407 Y0.1785 
G01 X-1.7413 Y0.1798 
G01 X-1.7415 Y0.1806 
G01 X-1.7418 Y0.1813 
G01 X-1.7421 Y0.1828 
G01 X-1.7425 Y0.1842 
G01 X-1.7426 Y0.1850 
G01 X-1.7427 Y0.1857 
G01 X-1.7427 Y0.1873 
G01 X-1.7428 Y0.1887 
G01 X-1.7427 Y0.1895 
G01 X-1.7427 Y0.1903 
G01 X-1.7424 Y0.1917 
G01 X-1.7422 Y0.1932 
G01 X-1.7420 Y0.1939 
G01 X-1.7418 Y0.1947 
G01 X-1.7412 Y0.1961 
G01 X-1.7408 Y0.1975 
G01 X-1.7404 Y0.1982 
G01 X-1.7401 Y0.1989 
G01 X-1.7393 Y0.2001 
G01 X-1.7385 Y0.2014 
G01 X-1.7380 Y0.2020 
G01 X-1.7376 Y0.2027 
G01 X-1.7365 Y0.2037 
G01 X-1.7355 Y0.2048 
G01 X-1.7349 Y0.2053 
G01 X-1.7344 Y0.2059 
G01 X-1.7331 Y0.2067 
G01 X-1.7319 Y0.2076 
G01 X-1.7312 Y0.2080 
G01 X-1.7306 Y0.2084 
G01 X-1.7292 Y0.2089 
G01 X-1.7279 Y0.2096 
G01 X-1.7271 Y0.2098 
G01 X-1.7264 Y0.2101 
G01 X-1.7249 Y0.2104 
G01 X-1.7235 Y0.2108 
G01 X-1.7227 Y0.2108 
G01 X-1.7220 Y0.2110 
G01 X-1.7205 Y0.2110 
G01 X-1.7190 Y0.2111 
G01 X-1.7182 Y0.2110 
G01 X-1.6754 Y0.2110 
G01 X-1.6734 Y0.2106 
G01 X-1.6710 Y0.2101 
G01 X-1.6668 Y0.2084 
G01 X-1.6643 Y0.2067 
G01 X-1.6630 Y0.2059 
G01 X-1.6598 Y0.2027 
G01 X-1.6583 Y0.2004 
G01 X-1.6573 Y0.1989 
G01 X-1.6567 Y0.1975 
G01 X-1.6556 Y0.1947 
G01 X-1.6554 Y0.1938 
G01 X-1.6547 Y0.1903 
G01 X-1.6547 Y0.1876 
G01 X-1.6272 Y0.1876 
G01 X-1.6227 Y0.1876 
G01 X-1.5953 Y0.1876 
G01 X-1.5953 Y0.1902 
G01 X-1.5946 Y0.1937 
G01 X-1.5944 Y0.1947 
G01 X-1.5933 Y0.1974 
G01 X-1.5927 Y0.1989 
G01 X-1.5917 Y0.2004 
G01 X-1.5902 Y0.2026 
G01 X-1.5870 Y0.2059 
G01 X-1.5858 Y0.2066 
G01 X-1.5832 Y0.2084 
G01 X-1.5790 Y0.2101 
G01 X-1.5766 Y0.2106 
G01 X-1.5746 Y0.2110 
G01 X-1.5701 Y0.2110 
G01 X-1.4851 Y0.2110 
G01 X-1.4672 Y0.2110 
G01 X-1.4529 Y0.2169 
G01 X-1.3795 Y0.2903 
G01 X-1.3669 Y0.3029 
G01 X-1.3610 Y0.3172 
G01 X-1.3610 Y0.3648 
G01 X-1.3610 Y0.3670 
G01 X-1.3610 Y0.3693 
G01 X-1.3605 Y0.3718 
G01 X-1.3601 Y0.3737 
G01 X-1.3591 Y0.3761 
G01 X-1.3584 Y0.3779 
G01 X-1.3570 Y0.3800 
G01 X-1.3559 Y0.3816 
G01 X-1.3537 Y0.3838 
G01 X-1.3527 Y0.3849 
G01 X-1.3500 Y0.3866 
G01 X-1.3489 Y0.3874 
G01 X-1.3469 Y0.3882 
G01 X-1.3447 Y0.3891 
G01 X-1.3437 Y0.3893 
G01 X-1.3403 Y0.3900 
G01 X-1.3380 Y0.3900 
G01 X-1.3357 Y0.3900 
G01 X-1.3332 Y0.3895 
G01 X-1.3329 Y0.3894 
G01 X-1.3179 Y0.3894 
G01 X-1.3048 Y0.3948 
G01 X-1.2939 Y0.4058 
G01 X-1.2929 Y0.4073 
G01 X-1.2912 Y0.4090 
G01 X-1.2897 Y0.4105 
G01 X-1.2880 Y0.4116 
G01 X-1.2859 Y0.4130 
G01 X-1.2858 Y0.4131 
G01 X-1.2839 Y0.4138 
G01 X-1.2817 Y0.4148 
G01 X-1.2816 Y0.4148 
G01 X-1.2794 Y0.4152 
G01 X-1.2773 Y0.4156 
G01 X-1.2772 Y0.4157 
G01 X-1.2753 Y0.4157 
G01 X-1.2727 Y0.4157 
G01 X-1.2726 Y0.4156 
G01 X-1.2709 Y0.4153 
G01 X-1.2683 Y0.4148 
G01 X-1.2682 Y0.4147 
G01 X-1.2664 Y0.4140 
G01 X-1.2641 Y0.4130 
G01 X-1.2640 Y0.4130 
G01 X-1.2621 Y0.4117 
G01 X-1.2604 Y0.4105 
G01 X-1.2587 Y0.4089 
G01 X-1.2571 Y0.4073 
G01 X-1.2560 Y0.4057 
G01 X-1.2546 Y0.4036 
G01 X-1.2546 Y0.4035 
G01 X-1.2538 Y0.4016 
G01 X-1.2529 Y0.3994 
G01 X-1.2526 Y0.3987 
G01 X-1.2522 Y0.3967 
G01 X-1.2517 Y0.3942 
G01 X-1.2517 Y0.3923 
G01 X-1.2517 Y0.3600 
G01 X-1.2510 Y0.3583 
G01 X-1.2497 Y0.3552 
G01 X-1.2493 Y0.3541 
G01 X-1.2487 Y0.3512 
G01 X-1.2484 Y0.3496 
G01 X-1.2484 Y0.3474 
G01 X-1.2272 Y0.3474 
G01 X-1.2227 Y0.3474 
G01 X-1.2016 Y0.3474 
G01 X-1.2016 Y0.3496 
G01 X-1.2013 Y0.3512 
G01 X-1.2007 Y0.3541 
G01 X-1.2003 Y0.3551 
G01 X-1.1990 Y0.3582 
G01 X-1.1983 Y0.3600 
G01 X-1.1983 Y0.3942 
G01 X-1.1981 Y0.3949 
G01 X-1.1974 Y0.3987 
G01 X-1.1957 Y0.4029 
G01 X-1.1894 Y0.4179 
G01 X-1.1894 Y0.4259 
G01 X-1.1891 Y0.4277 
G01 X-1.1885 Y0.4304 
G01 X-1.1868 Y0.4346 
G01 X-1.1843 Y0.4383 
G01 X-1.1811 Y0.4415 
G01 X-1.1793 Y0.4427 
G01 X-1.1773 Y0.4440 
G01 X-1.1766 Y0.4443 
G01 X-1.1731 Y0.4458 
G01 X-1.1687 Y0.4467 
G01 X-1.1642 Y0.4467 
G01 X-1.1624 Y0.4463 
G01 X-1.1597 Y0.4458 
G01 X-1.1555 Y0.4440 
G01 X-1.1546 Y0.4437 
G01 X-1.1532 Y0.4434 
G01 X-1.1431 Y0.4434 
G01 X-1.1431 Y0.4462 
G01 X-1.1429 Y0.4474 
G01 X-1.1532 Y0.4474 
G01 X-1.1543 Y0.4479 
G01 X-1.1551 Y0.4487 
G01 X-1.1556 Y0.4498 
G01 X-1.1556 Y0.4687 
G01 X-1.1551 Y0.4698 
G01 X-1.1543 Y0.4706 
G01 X-1.1532 Y0.4711 
G01 X-1.0870 Y0.4711 
G01 X-1.0859 Y0.4706 
G01 X-1.0855 Y0.4702 
G01 X-1.0802 Y0.4702 
G01 X-1.0799 Y0.4708 
G01 X-1.0797 Y0.4715 
G01 X-1.0786 Y0.4742 
G01 X-1.0786 Y0.4872 
G01 X-1.0777 Y0.4917 
G01 X-1.0760 Y0.4959 
G01 X-1.0735 Y0.4996 
G01 X-1.0703 Y0.5028 
G01 X-1.0665 Y0.5053 
G01 X-1.0623 Y0.5071 
G01 X-1.0579 Y0.5080 
G01 X-1.0533 Y0.5080 
G01 X-1.0325 Y0.5080 
G01 X-1.0325 Y0.5120 
G01 X-1.0596 Y0.5120 
G01 X-1.0608 Y0.5124 
G01 X-1.0616 Y0.5133 
G01 X-1.0621 Y0.5144 
G01 X-1.0621 Y0.6856 
G01 X-1.0616 Y0.6867 
G01 X-1.0608 Y0.6876 
G01 X-1.0596 Y0.6880 
G01 X-1.0325 Y0.6880 
G01 X-1.0325 Y0.6920 
G01 X-1.0579 Y0.6920 
G01 X-1.0623 Y0.6929 
G01 X-1.0665 Y0.6947 
G01 X-1.0703 Y0.6972 
G01 X-1.0735 Y0.7004 
G01 X-1.0760 Y0.7041 
G01 X-1.0777 Y0.7083 
G01 X-1.0786 Y0.7128 
G01 X-1.0786 Y0.7173 
G01 X-1.0786 Y0.7258 
G01 X-1.0797 Y0.7285 
G01 X-1.0799 Y0.7292 
G01 X-1.0802 Y0.7297 
G01 X-1.0855 Y0.7297 
G01 X-1.0859 Y0.7293 
G01 X-1.0870 Y0.7289 
G01 X-1.1532 Y0.7289 
G01 X-1.1543 Y0.7293 
G01 X-1.1551 Y0.7302 
G01 X-1.1556 Y0.7313 
G01 X-1.1556 Y0.7502 
G01 X-1.1551 Y0.7513 
G01 X-1.1543 Y0.7521 
G01 X-1.1532 Y0.7526 
G01 X-1.1429 Y0.7526 
G01 X-1.1431 Y0.7537 
G01 X-1.1431 Y0.7566 
G01 X-1.1532 Y0.7566 
G01 X-1.1546 Y0.7563 
G01 X-1.1559 Y0.7558 
G01 X-1.1570 Y0.7550 
G01 X-1.1580 Y0.7541 
G01 X-1.1588 Y0.7529 
G01 X-1.1593 Y0.7517 
G01 X-1.1599 Y0.7486 
G01 X-1.1599 Y0.7485 
G01 X-1.1608 Y0.7462 
G01 X-1.1616 Y0.7443 
G01 X-1.1623 Y0.7434 
G01 X-1.1642 Y0.7405 
G01 X-1.1674 Y0.7373 
G01 X-1.1685 Y0.7365 
G01 X-1.1711 Y0.7348 
G01 X-1.1744 Y0.7334 
G01 X-1.1753 Y0.7330 
G01 X-1.1775 Y0.7326 
G01 X-1.1797 Y0.7322 
G01 X-1.1843 Y0.7322 
G01 X-1.1873 Y0.7322 
G01 X-1.1917 Y0.7330 
G01 X-1.1959 Y0.7348 
G01 X-1.1997 Y0.7373 
G01 X-1.2029 Y0.7405 
G01 X-1.2054 Y0.7443 
G01 X-1.2071 Y0.7484 
G01 X-1.2080 Y0.7529 
G01 X-1.2080 Y0.7574 
G01 X-1.2080 Y1.0193 
G01 X-1.2080 Y1.0284 
G01 X-1.2106 Y1.0346 
G01 X-1.2340 Y1.0580 
G01 X-1.2404 Y1.0644 
G01 X-1.2416 Y1.0649 
G01 X-1.2424 Y1.0653 
G01 X-1.2442 Y1.0665 
G01 X-1.2462 Y1.0678 
G01 X-1.2494 Y1.0710 
G01 X-1.2519 Y1.0747 
G01 X-1.2526 Y1.0765 
G01 X-1.2536 Y1.0789 
G01 X-1.2542 Y1.0819 
G01 X-1.2545 Y1.0834 
G01 X-1.2545 Y1.0879 
G01 X-1.2536 Y1.0923 
G01 X-1.2522 Y1.0958 
G01 X-1.2519 Y1.0965 
G01 X-1.2507 Y1.0983 
G01 X-1.2494 Y1.1003 
G01 X-1.2462 Y1.1035 
G01 X-1.2394 Y1.1103 
G01 X-1.2394 Y1.1397 
G01 X-1.2603 Y1.1606 
G01 X-1.2927 Y1.1606 
G01 X-1.2939 Y1.1601 
G01 X-1.2984 Y1.1592 
G01 X-1.3006 Y1.1592 
G01 X-1.3029 Y1.1592 
G01 X-1.3043 Y1.1595 
G01 X-1.3073 Y1.1601 
G01 X-1.3094 Y1.1609 
G01 X-1.3115 Y1.1618 
G01 X-1.3153 Y1.1643 
G01 X-1.3216 Y1.1670 
G01 X-1.7197 Y1.1670 
G01 X-1.7241 Y1.1679 
G01 X-1.7259 Y1.1686 
G01 X-1.7283 Y1.1696 
G01 X-1.7321 Y1.1721 
G01 X-1.7437 Y1.1837 
G01 X-1.7453 Y1.1853 
G01 X-1.7461 Y1.1866 
G01 X-1.7478 Y1.1891 
G01 X-1.7495 Y1.1933 
G01 X-1.7500 Y1.1955 
G01 X-1.7504 Y1.1977 
G01 X-1.7504 Y1.2023 
G01 X-1.7499 Y1.2049 
G01 X-1.7495 Y1.2067 
G01 X-1.7478 Y1.2109 
G01 X-1.7453 Y1.2147 
G01 X-1.7428 Y1.2172 
G01 X-1.7423 Y1.2176 
G01 X-1.7412 Y1.2188 
G01 X-1.7391 Y1.2209 
G01 X-1.7353 Y1.2234 
G01 X-1.7311 Y1.2251 
G01 X-1.7283 Y1.2257 
G01 X-1.7267 Y1.2260 
G01 X-1.7222 Y1.2260 
G01 X-1.3086 Y1.2260 
G01 X-1.3041 Y1.2251 
G01 X-1.2999 Y1.2234 
G01 X-1.2962 Y1.2209 
G01 X-1.2930 Y1.2177 
G01 X-1.2897 Y1.2144 
G01 X-1.2603 Y1.2144 
G01 X-1.2394 Y1.2353 
G01 X-1.2394 Y1.2647 
G01 X-1.2603 Y1.2856 
G01 X-1.2897 Y1.2856 
G01 X-1.2962 Y1.2791 
G01 X-1.2999 Y1.2766 
G01 X-1.3041 Y1.2749 
G01 X-1.3086 Y1.2740 
G01 X-1.3131 Y1.2740 
G01 X-1.7267 Y1.2740 
G01 X-1.7311 Y1.2749 
G01 X-1.7353 Y1.2766 
G01 X-1.7391 Y1.2791 
G01 X-1.7423 Y1.2823 
G01 X-1.7467 Y1.2867 
G01 X-1.7492 Y1.2905 
G01 X-1.7509 Y1.2947 
G01 X-1.7518 Y1.2991 
G01 X-1.7518 Y1.3037 
G01 X-1.7509 Y1.3081 
G01 X-1.7492 Y1.3123 
G01 X-1.7467 Y1.3161 
G01 X-1.7435 Y1.3193 
G01 X-1.7418 Y1.3209 
G01 X-1.7383 Y1.3255 
G01 X-1.7375 Y1.3270 
G01 X-1.7423 Y1.3270 
G01 X-1.7439 Y1.3245 
G01 X-1.7495 Y1.3189 
G01 X-1.7561 Y1.3146 
G01 X-1.7633 Y1.3115 
G01 X-1.7711 Y1.3100 
G01 X-1.7789 Y1.3100 
G01 X-1.7867 Y1.3115 
G01 X-1.7939 Y1.3146 
G01 X-1.8005 Y1.3189 
G01 X-1.8061 Y1.3245 
G01 X-1.8077 Y1.3270 
G01 X-1.8125 Y1.3270 
G01 X-1.8116 Y1.3255 
G01 X-1.8082 Y1.3209 
G01 X-1.8064 Y1.3192 
G01 X-1.8033 Y1.3161 
G01 X-1.8008 Y1.3123 
G01 X-1.7998 Y1.3099 
G01 X-1.7990 Y1.3081 
G01 X-1.7982 Y1.3037 
G01 X-1.7982 Y1.2991 
G01 X-1.7983 Y1.2983 
G01 X-1.7990 Y1.2947 
G01 X-1.8001 Y1.2922 
G01 X-1.8008 Y1.2905 
G01 X-1.8024 Y1.2880 
G01 X-1.8033 Y1.2867 
G01 X-1.8065 Y1.2835 
G01 X-1.8140 Y1.2761 
G01 X-1.8210 Y1.2591 
G01 X-1.8210 Y1.2408 
G01 X-1.8140 Y1.2239 
G01 X-1.8079 Y1.2179 
G01 X-1.8047 Y1.2147 
G01 X-1.8022 Y1.2109 
G01 X-1.8005 Y1.2067 
G01 X-1.7996 Y1.2023 
G01 X-1.7996 Y1.1977 
G01 X-1.8001 Y1.1951 
G01 X-1.8005 Y1.1933 
G01 X-1.8007 Y1.1926 
G01 X-1.8022 Y1.1891 
G01 X-1.8047 Y1.1853 
G01 X-1.8140 Y1.1761 
G01 X-1.8210 Y1.1591 
G01 X-1.8210 Y1.1408 
G01 X-1.8140 Y1.1239 
G01 X-1.8079 Y1.1178 
G01 X-1.8047 Y1.1147 
G01 X-1.8022 Y1.1109 
G01 X-1.8012 Y1.1085 
G01 X-1.8005 Y1.1067 
G01 X-1.7996 Y1.1023 
G01 X-1.7996 Y1.0977 
G01 X-1.7997 Y1.0969 
G01 X-1.8005 Y1.0933 
G01 X-1.8015 Y1.0908 
G01 X-1.8022 Y1.0891 
G01 X-1.8038 Y1.0866 
G01 X-1.8047 Y1.0853 
G01 X-1.8079 Y1.0821 
G01 X-1.8140 Y1.0761 
G01 X-1.8210 Y1.0591 
G01 X-1.8210 Y1.0408 
G01 X-1.8140 Y1.0239 
G01 X-1.8047 Y1.0147 
G01 X-1.8039 Y1.0135 
G01 X-1.8022 Y1.0109 
G01 X-1.8015 Y1.0091 
G01 X-1.8005 Y1.0067 
G01 X-1.7998 Y1.0032 
G01 X-1.7996 Y1.0023 
G01 X-1.7996 Y0.9977 
G01 X-1.8005 Y0.9933 
G01 X-1.8012 Y0.9916 
G01 X-1.8022 Y0.9891 
G01 X-1.8047 Y0.9853 
G01 X-1.8079 Y0.9821 
G01 X-1.8140 Y0.9761 
G01 X-1.8210 Y0.9591 
G01 X-1.8210 Y0.9408 
G01 X-1.8140 Y0.9239 
G01 X-1.8079 Y0.9178 
G01 X-1.8047 Y0.9147 
G01 X-1.8022 Y0.9109 
G01 X-1.8012 Y0.9085 
G01 X-1.8005 Y0.9067 
G01 X-1.7996 Y0.9023 
G01 X-1.7996 Y0.8977 
G01 X-1.7997 Y0.8969 
G01 X-1.8005 Y0.8933 
G01 X-1.8015 Y0.8908 
G01 X-1.8022 Y0.8891 
G01 X-1.8038 Y0.8866 
G01 X-1.8047 Y0.8853 
G01 X-1.8079 Y0.8821 
G01 X-1.8140 Y0.8761 
G01 X-1.8210 Y0.8591 
G01 X-1.8210 Y0.8408 
G01 X-1.8140 Y0.8239 
G01 X-1.8033 Y0.8132 
G01 X-1.8023 Y0.8118 
G01 X-1.8008 Y0.8095 
G01 X-1.7990 Y0.8053 
G01 X-1.7982 Y0.8008 
G01 X-1.7982 Y0.7963 
G01 X-1.7986 Y0.7941 
G01 X-1.7990 Y0.7919 
G01 X-1.8008 Y0.7877 
G01 X-1.8016 Y0.7865 
G01 X-1.8033 Y0.7839 
G01 X-1.8065 Y0.7807 
G01 X-1.8082 Y0.7791 
G01 X-1.8116 Y0.7745 
G01 X-1.8125 Y0.7730 
G01 X-1.8077 Y0.7730 
G01 X-1.8061 Y0.7755 
G01 X-1.8005 Y0.7811 
G01 X-1.7939 Y0.7854 
G01 X-1.7867 Y0.7885 
G01 X-1.7789 Y0.7900 
G01 X-1.7711 Y0.7900 
G01 X-1.7633 Y0.7885 
G01 X-1.7561 Y0.7854 
G01 X-1.7495 Y0.7811 
G01 X-1.7439 Y0.7755 
G01 X-1.7396 Y0.7689 
G01 X-1.7365 Y0.7617 
G01 X-1.7357 Y0.7573 
G01 X-1.7313 Y0.7530 
G01 X-1.6950 Y0.7530 
G01 X-1.6950 Y0.7737 
G01 X-1.6946 Y0.7748 
G01 X-1.6937 Y0.7757 
G01 X-1.6926 Y0.7761 
G01 X-1.6206 Y0.7761 
G01 X-1.6195 Y0.7757 
G01 X-1.6186 Y0.7748 
G01 X-1.6182 Y0.7737 
G01 X-1.6182 Y0.7430 
G01 X-1.6142 Y0.7430 
G01 X-1.6142 Y0.7753 
G01 X-1.6133 Y0.7797 
G01 X-1.6116 Y0.7839 
G01 X-1.6090 Y0.7877 
G01 X-1.6058 Y0.7909 
G01 X-1.6021 Y0.7934 
G01 X-1.5979 Y0.7951 
G01 X-1.5934 Y0.7960 
G01 X-1.5889 Y0.7960 
G01 X-1.5485 Y0.7960 
G01 X-1.5441 Y0.7951 
G01 X-1.5399 Y0.7934 
G01 X-1.5362 Y0.7909 
G01 X-1.5329 Y0.7877 
G01 X-1.5304 Y0.7839 
G01 X-1.5287 Y0.7797 
G01 X-1.5278 Y0.7753 
G01 X-1.5278 Y0.7707 
G01 X-1.5278 Y0.6747 
G01 X-1.5287 Y0.6703 
G01 X-1.5304 Y0.6661 
G01 X-1.5329 Y0.6623 
G01 X-1.5362 Y0.6591 
G01 X-1.5399 Y0.6566 
G01 X-1.5441 Y0.6549 
G01 X-1.5485 Y0.6540 
G01 X-1.5531 Y0.6540 
G01 X-1.5934 Y0.6540 
G01 X-1.5979 Y0.6549 
G01 X-1.6021 Y0.6566 
G01 X-1.6058 Y0.6591 
G01 X-1.6090 Y0.6623 
G01 X-1.6116 Y0.6661 
G01 X-1.6133 Y0.6703 
G01 X-1.6142 Y0.6747 
G01 X-1.6142 Y0.6793 
G01 X-1.6142 Y0.6970 
G01 X-1.6182 Y0.6970 
G01 X-1.6182 Y0.6663 
G01 X-1.6186 Y0.6651 
G01 X-1.6195 Y0.6643 
G01 X-1.6206 Y0.6639 
G01 X-1.6926 Y0.6639 
G01 X-1.6937 Y0.6643 
G01 X-1.6946 Y0.6651 
G01 X-1.6950 Y0.6663 
G01 X-1.6950 Y0.6870 
G01 X-1.7003 Y0.6870 
G01 X-1.7017 Y0.6837 
G00 Z0.0200 
G00 X-1.3012 Y0.9640 
G01 Z-0.0030 F8.00  
G01 X-1.2980 Y0.9689 F8.00  
G01 X-1.2939 Y0.9730 
G01 X-1.2890 Y0.9762 
G01 X-1.2836 Y0.9784 
G01 X-1.2779 Y0.9796 
G01 X-1.2721 Y0.9796 
G01 X-1.2664 Y0.9784 
G01 X-1.2610 Y0.9762 
G01 X-1.2561 Y0.9730 
G01 X-1.2520 Y0.9689 
G01 X-1.2488 Y0.9640 
G01 X-1.2466 Y0.9586 
G01 X-1.2454 Y0.9529 
G01 X-1.2454 Y0.9471 
G01 X-1.2466 Y0.9414 
G01 X-1.2488 Y0.9360 
G01 X-1.2520 Y0.9311 
G01 X-1.2561 Y0.9270 
G01 X-1.2610 Y0.9238 
G01 X-1.2664 Y0.9216 
G01 X-1.2721 Y0.9204 
G01 X-1.2779 Y0.9204 
G01 X-1.2836 Y0.9216 
G01 X-1.2890 Y0.9238 
G01 X-1.2939 Y0.9270 
G01 X-1.2980 Y0.9311 
G01 X-1.3012 Y0.9360 
G01 X-1.3024 Y0.9390 
G01 X-1.7364 Y0.9390 
G01 X-1.7365 Y0.9383 
G01 X-1.7396 Y0.9311 
G01 X-1.7439 Y0.9245 
G01 X-1.7495 Y0.9189 
G01 X-1.7561 Y0.9146 
G01 X-1.7633 Y0.9115 
G01 X-1.7711 Y0.9100 
G01 X-1.7789 Y0.9100 
G01 X-1.7867 Y0.9115 
G01 X-1.7939 Y0.9146 
G01 X-1.8005 Y0.9189 
G01 X-1.8061 Y0.9245 
G01 X-1.8104 Y0.9311 
G01 X-1.8135 Y0.9383 
G01 X-1.8150 Y0.9461 
G01 X-1.8150 Y0.9539 
G01 X-1.8135 Y0.9617 
G01 X-1.8104 Y0.9689 
G01 X-1.8061 Y0.9755 
G01 X-1.8005 Y0.9811 
G01 X-1.7939 Y0.9854 
G01 X-1.7867 Y0.9885 
G01 X-1.7789 Y0.9900 
G01 X-1.7711 Y0.9900 
G01 X-1.7633 Y0.9885 
G01 X-1.7561 Y0.9854 
G01 X-1.7495 Y0.9811 
G01 X-1.7439 Y0.9755 
G01 X-1.7396 Y0.9689 
G01 X-1.7365 Y0.9617 
G01 X-1.7364 Y0.9610 
G01 X-1.3024 Y0.9610 
G01 X-1.3012 Y0.9640 
G00 Z0.0200 
G00 X-1.4890 Y0.4012 
G01 Z-0.0030 F8.00  
G01 X-1.4836 Y0.4034 F8.00  
G01 X-1.4779 Y0.4046 
G01 X-1.4721 Y0.4046 
G01 X-1.4664 Y0.4034 
G01 X-1.4610 Y0.4012 
G01 X-1.4561 Y0.3980 
G01 X-1.4520 Y0.3939 
G01 X-1.4488 Y0.3890 
G01 X-1.4466 Y0.3836 
G01 X-1.4454 Y0.3779 
G01 X-1.4454 Y0.3721 
G01 X-1.4466 Y0.3664 
G01 X-1.4488 Y0.3610 
G01 X-1.4520 Y0.3561 
G01 X-1.4561 Y0.3520 
G01 X-1.4610 Y0.3488 
G01 X-1.4664 Y0.3466 
G01 X-1.4721 Y0.3454 
G01 X-1.4779 Y0.3454 
G01 X-1.4836 Y0.3466 
G01 X-1.4890 Y0.3488 
G01 X-1.4938 Y0.3520 
G01 X-1.7350 Y0.3520 
G01 X-1.7350 Y0.3461 
G01 X-1.7365 Y0.3383 
G01 X-1.7396 Y0.3311 
G01 X-1.7439 Y0.3245 
G01 X-1.7495 Y0.3189 
G01 X-1.7561 Y0.3146 
G01 X-1.7633 Y0.3115 
G01 X-1.7711 Y0.3100 
G01 X-1.7789 Y0.3100 
G01 X-1.7867 Y0.3115 
G01 X-1.7939 Y0.3146 
G01 X-1.8005 Y0.3189 
G01 X-1.8061 Y0.3245 
G01 X-1.8104 Y0.3311 
G01 X-1.8135 Y0.3383 
G01 X-1.8150 Y0.3461 
G01 X-1.8150 Y0.3539 
G01 X-1.8135 Y0.3617 
G01 X-1.8104 Y0.3689 
G01 X-1.8061 Y0.3755 
G01 X-1.8005 Y0.3811 
G01 X-1.7939 Y0.3854 
G01 X-1.7867 Y0.3885 
G01 X-1.7789 Y0.3900 
G01 X-1.7711 Y0.3900 
G01 X-1.7681 Y0.3894 
G01 X-1.7647 Y0.3929 
G01 X-1.7609 Y0.3954 
G01 X-1.7567 Y0.3971 
G01 X-1.7523 Y0.3980 
G01 X-1.7477 Y0.3980 
G01 X-1.4938 Y0.3980 
G01 X-1.4890 Y0.4012 
G00 Z0.0200 
G00 X-1.3393 Y1.1330 
G01 Z-0.0030 F8.00  
G01 X-1.3349 Y1.1321 F8.00  
G01 X-1.3307 Y1.1304 
G01 X-1.3269 Y1.1279 
G01 X-1.3237 Y1.1247 
G01 X-1.3157 Y1.1167 
G01 X-1.3132 Y1.1129 
G01 X-1.3050 Y1.1047 
G01 X-1.3042 Y1.1035 
G01 X-1.3024 Y1.1009 
G01 X-1.3017 Y1.0991 
G01 X-1.3007 Y1.0967 
G01 X-1.3000 Y1.0932 
G01 X-1.2998 Y1.0923 
G01 X-1.2998 Y1.0877 
G01 X-1.3007 Y1.0833 
G01 X-1.3014 Y1.0816 
G01 X-1.3024 Y1.0791 
G01 X-1.3050 Y1.0753 
G01 X-1.3082 Y1.0721 
G01 X-1.3094 Y1.0713 
G01 X-1.3119 Y1.0696 
G01 X-1.3137 Y1.0689 
G01 X-1.3161 Y1.0679 
G01 X-1.3196 Y1.0672 
G01 X-1.3206 Y1.0670 
G01 X-1.3251 Y1.0670 
G01 X-1.7197 Y1.0670 
G01 X-1.7241 Y1.0679 
G01 X-1.7283 Y1.0696 
G01 X-1.7321 Y1.0721 
G01 X-1.7353 Y1.0753 
G01 X-1.7421 Y1.0821 
G01 X-1.7453 Y1.0853 
G01 X-1.7478 Y1.0891 
G01 X-1.7495 Y1.0933 
G01 X-1.7504 Y1.0977 
G01 X-1.7504 Y1.1023 
G01 X-1.7495 Y1.1067 
G01 X-1.7478 Y1.1109 
G01 X-1.7453 Y1.1147 
G01 X-1.7321 Y1.1279 
G01 X-1.7283 Y1.1304 
G01 X-1.7241 Y1.1321 
G01 X-1.7197 Y1.1330 
G01 X-1.7151 Y1.1330 
G01 X-1.3393 Y1.1330 
G00 Z0.0200 
G00 X-1.4958 Y0.3451 
G01 Z-0.0030 F8.00  
G01 X-1.4925 Y0.3437 F8.00  
G01 X-1.4825 Y0.3396 
G01 X-1.4803 Y0.3381 
G01 X-1.4788 Y0.3371 
G01 X-1.4772 Y0.3355 
G01 X-1.4756 Y0.3339 
G01 X-1.4731 Y0.3301 
G01 X-1.4713 Y0.3259 
G01 X-1.4704 Y0.3215 
G01 X-1.4704 Y0.3170 
G01 X-1.4713 Y0.3128 
G01 X-1.4713 Y0.3125 
G01 X-1.4731 Y0.3083 
G01 X-1.4746 Y0.3061 
G01 X-1.4756 Y0.3046 
G01 X-1.4775 Y0.3026 
G01 X-1.4788 Y0.3014 
G01 X-1.4860 Y0.2941 
G01 X-1.4880 Y0.2928 
G01 X-1.4898 Y0.2916 
G01 X-1.4906 Y0.2913 
G01 X-1.4940 Y0.2899 
G01 X-1.4984 Y0.2890 
G01 X-1.5030 Y0.2890 
G01 X-1.6149 Y0.2890 
G01 X-1.7183 Y0.2890 
G01 X-1.7190 Y0.2891 
G01 X-1.7228 Y0.2899 
G01 X-1.7270 Y0.2916 
G01 X-1.7307 Y0.2941 
G01 X-1.7339 Y0.2973 
G01 X-1.7364 Y0.3011 
G01 X-1.7382 Y0.3053 
G01 X-1.7391 Y0.3097 
G01 X-1.7391 Y0.3143 
G01 X-1.7389 Y0.3150 
G01 X-1.7382 Y0.3187 
G01 X-1.7364 Y0.3229 
G01 X-1.7336 Y0.3297 
G01 X-1.7319 Y0.3338 
G01 X-1.7294 Y0.3377 
G01 X-1.7262 Y0.3409 
G01 X-1.7224 Y0.3434 
G01 X-1.7182 Y0.3451 
G01 X-1.7140 Y0.3459 
G01 X-1.7138 Y0.3460 
G01 X-1.7092 Y0.3460 
G01 X-1.5048 Y0.3460 
G01 X-1.5002 Y0.3460 
G01 X-1.4991 Y0.3458 
G01 X-1.4958 Y0.3451 
G00 Z0.0200 
G00 X-1.1543 Y0.5210 
G01 Z-0.0030 F8.00  
G01 X-1.1532 Y0.5215 F8.00  
G01 X-1.0870 Y0.5215 
G01 X-1.0859 Y0.5210 
G01 X-1.0851 Y0.5202 
G01 X-1.0846 Y0.5191 
G01 X-1.0846 Y0.5002 
G01 X-1.0851 Y0.4991 
G01 X-1.0859 Y0.4982 
G01 X-1.0870 Y0.4978 
G01 X-1.1532 Y0.4978 
G01 X-1.1543 Y0.4982 
G01 X-1.1547 Y0.4986 
G01 X-1.3020 Y0.4986 
G01 X-1.3020 Y0.4438 
G01 X-1.2988 Y0.4390 
G01 X-1.2966 Y0.4336 
G01 X-1.2954 Y0.4279 
G01 X-1.2954 Y0.4221 
G01 X-1.2966 Y0.4164 
G01 X-1.2988 Y0.4110 
G01 X-1.3020 Y0.4061 
G01 X-1.3061 Y0.4020 
G01 X-1.3110 Y0.3988 
G01 X-1.3164 Y0.3966 
G01 X-1.3221 Y0.3954 
G01 X-1.3279 Y0.3954 
G01 X-1.3336 Y0.3966 
G01 X-1.3390 Y0.3988 
G01 X-1.3439 Y0.4020 
G01 X-1.3480 Y0.4061 
G01 X-1.3512 Y0.4110 
G01 X-1.3534 Y0.4164 
G01 X-1.3546 Y0.4221 
G01 X-1.3546 Y0.4279 
G01 X-1.3534 Y0.4336 
G01 X-1.3512 Y0.4390 
G01 X-1.3480 Y0.4438 
G01 X-1.3480 Y0.5023 
G01 X-1.3471 Y0.5067 
G01 X-1.3454 Y0.5109 
G01 X-1.3429 Y0.5147 
G01 X-1.3397 Y0.5179 
G01 X-1.3359 Y0.5204 
G01 X-1.3317 Y0.5221 
G01 X-1.3273 Y0.5230 
G01 X-1.3227 Y0.5230 
G01 X-1.3183 Y0.5221 
G01 X-1.3147 Y0.5206 
G01 X-1.1547 Y0.5206 
G01 X-1.1543 Y0.5210 
G00 Z0.0200 
G00 X-1.1543 Y0.5730 
G01 Z-0.0030 F8.00  
G01 X-1.1532 Y0.5735 F8.00  
G01 X-1.0870 Y0.5735 
G01 X-1.0859 Y0.5730 
G01 X-1.0851 Y0.5722 
G01 X-1.0846 Y0.5711 
G01 X-1.0846 Y0.5522 
G01 X-1.0851 Y0.5511 
G01 X-1.0859 Y0.5502 
G01 X-1.0870 Y0.5498 
G01 X-1.1532 Y0.5498 
G01 X-1.1543 Y0.5502 
G01 X-1.1547 Y0.5506 
G01 X-1.4271 Y0.5506 
G01 X-1.4450 Y0.5216 
G01 X-1.4450 Y0.4263 
G01 X-1.4454 Y0.4251 
G01 X-1.4463 Y0.4243 
G01 X-1.4474 Y0.4239 
G01 X-1.5194 Y0.4239 
G01 X-1.5205 Y0.4243 
G01 X-1.5214 Y0.4251 
G01 X-1.5218 Y0.4263 
G01 X-1.5218 Y0.5337 
G01 X-1.5214 Y0.5348 
G01 X-1.5205 Y0.5357 
G01 X-1.5194 Y0.5361 
G01 X-1.4618 Y0.5361 
G01 X-1.4427 Y0.5673 
G01 X-1.4421 Y0.5684 
G01 X-1.4420 Y0.5685 
G01 X-1.4419 Y0.5686 
G01 X-1.4409 Y0.5695 
G01 X-1.4400 Y0.5704 
G01 X-1.4399 Y0.5705 
G01 X-1.4398 Y0.5706 
G01 X-1.4386 Y0.5712 
G01 X-1.4375 Y0.5719 
G01 X-1.4374 Y0.5719 
G01 X-1.4372 Y0.5720 
G01 X-1.4360 Y0.5723 
G01 X-1.4347 Y0.5726 
G01 X-1.4346 Y0.5726 
G01 X-1.4344 Y0.5726 
G01 X-1.4331 Y0.5726 
G01 X-1.1547 Y0.5726 
G01 X-1.1543 Y0.5730 
G00 Z0.0200 
G00 X-1.1543 Y0.6242 
G01 Z-0.0030 F8.00  
G01 X-1.1532 Y0.6246 F8.00  
G01 X-1.0870 Y0.6246 
G01 X-1.0859 Y0.6242 
G01 X-1.0851 Y0.6234 
G01 X-1.0846 Y0.6222 
G01 X-1.0846 Y0.6033 
G01 X-1.0851 Y0.6022 
G01 X-1.0859 Y0.6014 
G01 X-1.0870 Y0.6009 
G01 X-1.1532 Y0.6009 
G01 X-1.1543 Y0.6014 
G01 X-1.1547 Y0.6018 
G01 X-1.4613 Y0.6018 
G01 X-1.4642 Y0.6018 
G01 X-1.4670 Y0.6025 
G01 X-1.4679 Y0.6030 
G01 X-1.4683 Y0.6029 
G01 X-1.4727 Y0.6020 
G01 X-1.7477 Y0.6020 
G01 X-1.7523 Y0.6020 
G01 X-1.7567 Y0.6029 
G01 X-1.7609 Y0.6046 
G01 X-1.7647 Y0.6071 
G01 X-1.7681 Y0.6106 
G01 X-1.7711 Y0.6100 
G01 X-1.7789 Y0.6100 
G01 X-1.7867 Y0.6115 
G01 X-1.7939 Y0.6146 
G01 X-1.8005 Y0.6189 
G01 X-1.8061 Y0.6245 
G01 X-1.8104 Y0.6311 
G01 X-1.8135 Y0.6383 
G01 X-1.8150 Y0.6461 
G01 X-1.8150 Y0.6539 
G01 X-1.8135 Y0.6617 
G01 X-1.8104 Y0.6689 
G01 X-1.8061 Y0.6755 
G01 X-1.8005 Y0.6811 
G01 X-1.7939 Y0.6854 
G01 X-1.7867 Y0.6885 
G01 X-1.7789 Y0.6900 
G01 X-1.7711 Y0.6900 
G01 X-1.7633 Y0.6885 
G01 X-1.7561 Y0.6854 
G01 X-1.7495 Y0.6811 
G01 X-1.7439 Y0.6755 
G01 X-1.7396 Y0.6689 
G01 X-1.7365 Y0.6617 
G01 X-1.7350 Y0.6539 
G01 X-1.7350 Y0.6480 
G01 X-1.4727 Y0.6480 
G01 X-1.4683 Y0.6471 
G01 X-1.4641 Y0.6454 
G01 X-1.4603 Y0.6429 
G01 X-1.4571 Y0.6397 
G01 X-1.4546 Y0.6359 
G01 X-1.4529 Y0.6317 
G01 X-1.4520 Y0.6273 
G01 X-1.4520 Y0.6238 
G01 X-1.1547 Y0.6238 
G01 X-1.1543 Y0.6242 
G00 Z0.0200 
G00 X-1.1543 Y0.6498 
G01 Z-0.0030 F8.00  
G01 X-1.1532 Y0.6502 F8.00  
G01 X-1.0870 Y0.6502 
G01 X-1.0859 Y0.6498 
G01 X-1.0851 Y0.6489 
G01 X-1.0846 Y0.6478 
G01 X-1.0846 Y0.6289 
G01 X-1.0851 Y0.6278 
G01 X-1.0859 Y0.6270 
G01 X-1.0870 Y0.6265 
G01 X-1.1532 Y0.6265 
G01 X-1.1543 Y0.6270 
G01 X-1.1547 Y0.6274 
G01 X-1.4318 Y0.6274 
G01 X-1.4347 Y0.6274 
G01 X-1.4375 Y0.6281 
G01 X-1.4400 Y0.6296 
G01 X-1.4743 Y0.6639 
G01 X-1.5194 Y0.6639 
G01 X-1.5205 Y0.6643 
G01 X-1.5214 Y0.6651 
G01 X-1.5218 Y0.6663 
G01 X-1.5218 Y0.7737 
G01 X-1.5214 Y0.7748 
G01 X-1.5205 Y0.7757 
G01 X-1.5194 Y0.7761 
G01 X-1.4474 Y0.7761 
G01 X-1.4463 Y0.7757 
G01 X-1.4454 Y0.7748 
G01 X-1.4450 Y0.7737 
G01 X-1.4450 Y0.6663 
G01 X-1.4451 Y0.6658 
G01 X-1.4287 Y0.6494 
G01 X-1.1547 Y0.6494 
G01 X-1.1543 Y0.6498 
G00 Z0.0200 
G00 X-1.1543 Y0.7266 
G01 Z-0.0030 F8.00  
G01 X-1.1532 Y0.7270 F8.00  
G01 X-1.0870 Y0.7270 
G01 X-1.0859 Y0.7266 
G01 X-1.0851 Y0.7257 
G01 X-1.0846 Y0.7246 
G01 X-1.0846 Y0.7057 
G01 X-1.0851 Y0.7046 
G01 X-1.0859 Y0.7038 
G01 X-1.0870 Y0.7033 
G01 X-1.1532 Y0.7033 
G01 X-1.1543 Y0.7038 
G01 X-1.1547 Y0.7042 
G01 X-1.2137 Y0.7042 
G01 X-1.2166 Y0.7042 
G01 X-1.2194 Y0.7049 
G01 X-1.2219 Y0.7064 
G01 X-1.2317 Y0.7162 
G01 X-1.2338 Y0.7182 
G01 X-1.2352 Y0.7208 
G01 X-1.2360 Y0.7235 
G01 X-1.2360 Y1.0204 
G01 X-1.2546 Y1.0390 
G01 X-1.7364 Y1.0390 
G01 X-1.7365 Y1.0383 
G01 X-1.7396 Y1.0311 
G01 X-1.7439 Y1.0245 
G01 X-1.7495 Y1.0189 
G01 X-1.7561 Y1.0146 
G01 X-1.7633 Y1.0115 
G01 X-1.7711 Y1.0100 
G01 X-1.7789 Y1.0100 
G01 X-1.7867 Y1.0115 
G01 X-1.7939 Y1.0146 
G01 X-1.8005 Y1.0189 
G01 X-1.8061 Y1.0245 
G01 X-1.8104 Y1.0311 
G01 X-1.8135 Y1.0383 
G01 X-1.8150 Y1.0461 
G01 X-1.8150 Y1.0539 
G01 X-1.8135 Y1.0617 
G01 X-1.8104 Y1.0689 
G01 X-1.8061 Y1.0755 
G01 X-1.8005 Y1.0811 
G01 X-1.7939 Y1.0854 
G01 X-1.7867 Y1.0885 
G01 X-1.7789 Y1.0900 
G01 X-1.7711 Y1.0900 
G01 X-1.7633 Y1.0885 
G01 X-1.7561 Y1.0854 
G01 X-1.7495 Y1.0811 
G01 X-1.7439 Y1.0755 
G01 X-1.7396 Y1.0689 
G01 X-1.7365 Y1.0617 
G01 X-1.7364 Y1.0610 
G01 X-1.2485 Y1.0610 
G01 X-1.2458 Y1.0602 
G01 X-1.2432 Y1.0588 
G01 X-1.2412 Y1.0568 
G01 X-1.2162 Y1.0318 
G01 X-1.2147 Y1.0292 
G01 X-1.2140 Y1.0264 
G01 X-1.2140 Y1.0235 
G01 X-1.2140 Y0.7296 
G01 X-1.2106 Y0.7262 
G01 X-1.1547 Y0.7262 
G01 X-1.1543 Y0.7266 
G00 Z0.0200 
G00 X-1.8150 Y1.2461 
G01 Z-0.0030 F8.00  
G01 X-1.8150 Y1.2539 F8.00  
G01 X-1.8135 Y1.2617 
G01 X-1.8104 Y1.2689 
G01 X-1.8061 Y1.2755 
G01 X-1.8005 Y1.2811 
G01 X-1.7939 Y1.2854 
G01 X-1.7867 Y1.2885 
G01 X-1.7789 Y1.2900 
G01 X-1.7711 Y1.2900 
G01 X-1.7633 Y1.2885 
G01 X-1.7561 Y1.2854 
G01 X-1.7495 Y1.2811 
G01 X-1.7439 Y1.2755 
G01 X-1.7396 Y1.2689 
G01 X-1.7392 Y1.2680 
G01 X-1.2988 Y1.2680 
G01 X-1.2872 Y1.2796 
G01 X-1.2627 Y1.2796 
G01 X-1.2454 Y1.2622 
G01 X-1.2454 Y1.2377 
G01 X-1.2627 Y1.2204 
G01 X-1.2872 Y1.2204 
G01 X-1.2988 Y1.2320 
G01 X-1.7392 Y1.2320 
G01 X-1.7396 Y1.2311 
G01 X-1.7439 Y1.2245 
G01 X-1.7495 Y1.2189 
G01 X-1.7561 Y1.2146 
G01 X-1.7633 Y1.2115 
G01 X-1.7711 Y1.2100 
G01 X-1.7789 Y1.2100 
G01 X-1.7867 Y1.2115 
G01 X-1.7939 Y1.2146 
G01 X-1.8005 Y1.2189 
G01 X-1.8061 Y1.2245 
G01 X-1.8104 Y1.2311 
G01 X-1.8135 Y1.2383 
G01 X-1.8150 Y1.2461 
G00 Z0.0200 
G00 X-1.8150 Y0.5461 
G01 Z-0.0030 F8.00  
G01 X-1.8150 Y0.5539 F8.00  
G01 X-1.8135 Y0.5617 
G01 X-1.8104 Y0.5689 
G01 X-1.8061 Y0.5755 
G01 X-1.8005 Y0.5811 
G01 X-1.7939 Y0.5854 
G01 X-1.7867 Y0.5885 
G01 X-1.7789 Y0.5900 
G01 X-1.7711 Y0.5900 
G01 X-1.7681 Y0.5894 
G01 X-1.7647 Y0.5929 
G01 X-1.7609 Y0.5954 
G01 X-1.7567 Y0.5971 
G01 X-1.7523 Y0.5980 
G01 X-1.7477 Y0.5980 
G01 X-1.4727 Y0.5980 
G01 X-1.4683 Y0.5971 
G01 X-1.4679 Y0.5970 
G01 X-1.4670 Y0.5975 
G01 X-1.4642 Y0.5982 
G01 X-1.4613 Y0.5982 
G01 X-1.1547 Y0.5982 
G01 X-1.1543 Y0.5986 
G01 X-1.1532 Y0.5991 
G01 X-1.0870 Y0.5991 
G01 X-1.0859 Y0.5986 
G01 X-1.0851 Y0.5978 
G01 X-1.0846 Y0.5967 
G01 X-1.0846 Y0.5777 
G01 X-1.0851 Y0.5766 
G01 X-1.0859 Y0.5758 
G01 X-1.0870 Y0.5753 
G01 X-1.1532 Y0.5753 
G01 X-1.1543 Y0.5758 
G01 X-1.1547 Y0.5762 
G01 X-1.4520 Y0.5762 
G01 X-1.4520 Y0.5727 
G01 X-1.4529 Y0.5683 
G01 X-1.4546 Y0.5641 
G01 X-1.4571 Y0.5603 
G01 X-1.4603 Y0.5571 
G01 X-1.4641 Y0.5546 
G01 X-1.4683 Y0.5529 
G01 X-1.4727 Y0.5520 
G01 X-1.7350 Y0.5520 
G01 X-1.7350 Y0.5461 
G01 X-1.7365 Y0.5383 
G01 X-1.7396 Y0.5311 
G01 X-1.7439 Y0.5245 
G01 X-1.7495 Y0.5189 
G01 X-1.7561 Y0.5146 
G01 X-1.7633 Y0.5115 
G01 X-1.7711 Y0.5100 
G01 X-1.7789 Y0.5100 
G01 X-1.7867 Y0.5115 
G01 X-1.7939 Y0.5146 
G01 X-1.8005 Y0.5189 
G01 X-1.8061 Y0.5245 
G01 X-1.8104 Y0.5311 
G01 X-1.8135 Y0.5383 
G01 X-1.8150 Y0.5461 
G00 Z0.0200 
G00 X-1.8150 Y0.2461 
G01 Z-0.0030 F8.00  
G01 X-1.8150 Y0.2539 F8.00  
G01 X-1.8135 Y0.2617 
G01 X-1.8104 Y0.2689 
G01 X-1.8061 Y0.2755 
G01 X-1.8005 Y0.2811 
G01 X-1.7939 Y0.2854 
G01 X-1.7867 Y0.2885 
G01 X-1.7789 Y0.2900 
G01 X-1.7711 Y0.2900 
G01 X-1.7633 Y0.2885 
G01 X-1.7561 Y0.2854 
G01 X-1.7524 Y0.2830 
G01 X-1.6217 Y0.2830 
G01 X-1.4887 Y0.2830 
G01 X-1.4330 Y0.3387 
G01 X-1.4330 Y0.5032 
G01 X-1.4317 Y0.5096 
G01 X-1.4292 Y0.5156 
G01 X-1.4256 Y0.5210 
G01 X-1.4210 Y0.5256 
G01 X-1.4156 Y0.5292 
G01 X-1.4096 Y0.5317 
G01 X-1.4032 Y0.5330 
G01 X-1.3967 Y0.5330 
G01 X-1.3904 Y0.5317 
G01 X-1.3857 Y0.5298 
G01 X-1.3707 Y0.5448 
G01 X-1.3682 Y0.5463 
G01 X-1.3654 Y0.5470 
G01 X-1.3625 Y0.5470 
G01 X-1.1547 Y0.5470 
G01 X-1.1543 Y0.5474 
G01 X-1.1532 Y0.5479 
G01 X-1.0870 Y0.5479 
G01 X-1.0859 Y0.5474 
G01 X-1.0851 Y0.5466 
G01 X-1.0846 Y0.5455 
G01 X-1.0846 Y0.5266 
G01 X-1.0851 Y0.5255 
G01 X-1.0859 Y0.5246 
G01 X-1.0870 Y0.5242 
G01 X-1.1532 Y0.5242 
G01 X-1.1543 Y0.5246 
G01 X-1.1547 Y0.5250 
G01 X-1.3594 Y0.5250 
G01 X-1.3702 Y0.5143 
G01 X-1.3683 Y0.5096 
G01 X-1.3670 Y0.5032 
G01 X-1.3670 Y0.3217 
G01 X-1.3683 Y0.3154 
G01 X-1.3708 Y0.3094 
G01 X-1.3744 Y0.3040 
G01 X-1.3790 Y0.2994 
G01 X-1.4540 Y0.2244 
G01 X-1.4594 Y0.2208 
G01 X-1.4654 Y0.2183 
G01 X-1.4717 Y0.2170 
G01 X-1.4782 Y0.2170 
G01 X-1.6000 Y0.2170 
G01 X-1.6008 Y0.2167 
G01 X-1.6492 Y0.2167 
G01 X-1.6500 Y0.2170 
G01 X-1.7524 Y0.2170 
G01 X-1.7561 Y0.2146 
G01 X-1.7633 Y0.2115 
G01 X-1.7711 Y0.2100 
G01 X-1.7789 Y0.2100 
G01 X-1.7867 Y0.2115 
G01 X-1.7939 Y0.2146 
G01 X-1.8005 Y0.2189 
G01 X-1.8061 Y0.2245 
G01 X-1.8104 Y0.2311 
G01 X-1.8135 Y0.2383 
G01 X-1.8150 Y0.2461 
G00 Z0.0200 
G00 X-1.2433 Y0.3924 
G01 Z-0.0030 F8.00  
G01 X-1.2360 Y0.3924 F8.00  
G01 X-1.2360 Y0.3975 
G01 X-1.2390 Y0.3988 
G01 X-1.2439 Y0.4020 
G01 X-1.2480 Y0.4061 
G01 X-1.2512 Y0.4110 
G01 X-1.2534 Y0.4164 
G01 X-1.2546 Y0.4221 
G01 X-1.2546 Y0.4279 
G01 X-1.2534 Y0.4336 
G01 X-1.2512 Y0.4390 
G01 X-1.2480 Y0.4439 
G01 X-1.2439 Y0.4480 
G01 X-1.2390 Y0.4512 
G01 X-1.2360 Y0.4524 
G01 X-1.2360 Y0.4764 
G01 X-1.2352 Y0.4792 
G01 X-1.2338 Y0.4818 
G01 X-1.2318 Y0.4838 
G01 X-1.2219 Y0.4936 
G01 X-1.2194 Y0.4951 
G01 X-1.2166 Y0.4958 
G01 X-1.2137 Y0.4958 
G01 X-1.1547 Y0.4958 
G01 X-1.1543 Y0.4962 
G01 X-1.1532 Y0.4967 
G01 X-1.0870 Y0.4967 
G01 X-1.0859 Y0.4962 
G01 X-1.0851 Y0.4954 
G01 X-1.0846 Y0.4943 
G01 X-1.0846 Y0.4754 
G01 X-1.0851 Y0.4743 
G01 X-1.0859 Y0.4734 
G01 X-1.0870 Y0.4730 
G01 X-1.1532 Y0.4730 
G01 X-1.1543 Y0.4734 
G01 X-1.1547 Y0.4738 
G01 X-1.2106 Y0.4738 
G01 X-1.2140 Y0.4704 
G01 X-1.2140 Y0.4524 
G01 X-1.2110 Y0.4512 
G01 X-1.2061 Y0.4480 
G01 X-1.2020 Y0.4439 
G01 X-1.1988 Y0.4390 
G01 X-1.1966 Y0.4336 
G01 X-1.1954 Y0.4279 
G01 X-1.1954 Y0.4221 
G01 X-1.1966 Y0.4164 
G01 X-1.1988 Y0.4110 
G01 X-1.2020 Y0.4061 
G01 X-1.2061 Y0.4020 
G01 X-1.2110 Y0.3988 
G01 X-1.2140 Y0.3975 
G01 X-1.2140 Y0.3924 
G01 X-1.2067 Y0.3924 
G01 X-1.2056 Y0.3919 
G01 X-1.2047 Y0.3911 
G01 X-1.2043 Y0.3900 
G01 X-1.2043 Y0.3612 
G01 X-1.2047 Y0.3601 
G01 X-1.2056 Y0.3593 
G01 X-1.2067 Y0.3588 
G01 X-1.2433 Y0.3588 
G01 X-1.2444 Y0.3593 
G01 X-1.2453 Y0.3601 
G01 X-1.2457 Y0.3612 
G01 X-1.2457 Y0.3900 
G01 X-1.2453 Y0.3911 
G01 X-1.2444 Y0.3919 
G01 X-1.2433 Y0.3924 
G00 Z0.0200 
G00 X-1.4137 Y0.7338 
G01 Z-0.0030 F8.00  
G01 X-1.4137 Y0.7338 F8.00  
G01 X-1.4182 Y0.7338 
G01 X-1.4227 Y0.7347 
G01 X-1.4246 Y0.7355 
G01 X-1.4268 Y0.7364 
G01 X-1.4306 Y0.7389 
G01 X-1.4338 Y0.7421 
G01 X-1.4348 Y0.7436 
G01 X-1.4363 Y0.7459 
G01 X-1.4369 Y0.7474 
G01 X-1.4381 Y0.7501 
G01 X-1.4388 Y0.7539 
G01 X-1.4389 Y0.7545 
G01 X-1.4389 Y0.7753 
G01 X-1.4381 Y0.7797 
G01 X-1.4363 Y0.7839 
G01 X-1.4338 Y0.7877 
G01 X-1.4306 Y0.7909 
G01 X-1.4268 Y0.7934 
G01 X-1.4227 Y0.7951 
G01 X-1.4182 Y0.7960 
G01 X-1.4137 Y0.7960 
G01 X-1.3747 Y0.7960 
G01 X-1.3703 Y0.7951 
G01 X-1.3661 Y0.7934 
G01 X-1.3623 Y0.7909 
G01 X-1.3591 Y0.7877 
G01 X-1.3566 Y0.7839 
G01 X-1.3549 Y0.7797 
G01 X-1.3540 Y0.7753 
G01 X-1.3540 Y0.7707 
G01 X-1.3540 Y0.7516 
G01 X-1.3543 Y0.7502 
G01 X-1.3549 Y0.7472 
G01 X-1.3559 Y0.7447 
G01 X-1.3566 Y0.7430 
G01 X-1.3591 Y0.7392 
G01 X-1.3623 Y0.7360 
G01 X-1.3641 Y0.7348 
G01 X-1.3661 Y0.7335 
G01 X-1.3668 Y0.7332 
G01 X-1.3703 Y0.7317 
G01 X-1.3747 Y0.7309 
G01 X-1.3793 Y0.7309 
G01 X-1.3807 Y0.7312 
G01 X-1.3837 Y0.7317 
G01 X-1.3879 Y0.7335 
G01 X-1.3929 Y0.7356 
G01 X-1.4071 Y0.7356 
G01 X-1.4092 Y0.7347 
G01 X-1.4131 Y0.7339 
G01 X-1.4137 Y0.7338 
G00 Z0.0200 
G00 X-1.2960 Y0.4719 
G01 Z-0.0030 F8.00  
G01 X-1.2951 Y0.4764 F8.00  
G01 X-1.2934 Y0.4805 
G01 X-1.2909 Y0.4843 
G01 X-1.2877 Y0.4875 
G01 X-1.2839 Y0.4900 
G01 X-1.2797 Y0.4918 
G01 X-1.2753 Y0.4926 
G01 X-1.2707 Y0.4926 
G01 X-1.2673 Y0.4926 
G01 X-1.2627 Y0.4926 
G01 X-1.2583 Y0.4918 
G01 X-1.2541 Y0.4900 
G01 X-1.2503 Y0.4875 
G01 X-1.2471 Y0.4843 
G01 X-1.2446 Y0.4805 
G01 X-1.2429 Y0.4764 
G01 X-1.2420 Y0.4719 
G01 X-1.2420 Y0.4656 
G01 X-1.2429 Y0.4611 
G01 X-1.2443 Y0.4576 
G01 X-1.2446 Y0.4569 
G01 X-1.2459 Y0.4550 
G01 X-1.2471 Y0.4532 
G01 X-1.2583 Y0.4420 
G01 X-1.2621 Y0.4394 
G01 X-1.2639 Y0.4387 
G01 X-1.2663 Y0.4377 
G01 X-1.2692 Y0.4371 
G01 X-1.2707 Y0.4368 
G01 X-1.2753 Y0.4368 
G01 X-1.2797 Y0.4377 
G01 X-1.2831 Y0.4391 
G01 X-1.2839 Y0.4394 
G01 X-1.2857 Y0.4407 
G01 X-1.2877 Y0.4420 
G01 X-1.2909 Y0.4452 
G01 X-1.2934 Y0.4489 
G01 X-1.2941 Y0.4507 
G01 X-1.2951 Y0.4531 
G01 X-1.2957 Y0.4560 
G01 X-1.2960 Y0.4576 
G01 X-1.2960 Y0.4621 
G01 X-1.2960 Y0.4719 
G00 Z0.0200 
G00 X-1.2753 Y0.7066 
G01 Z-0.0030 F8.00  
G01 X-1.2797 Y0.7074 F8.00  
G01 X-1.2839 Y0.7092 
G01 X-1.2877 Y0.7117 
G01 X-1.2909 Y0.7149 
G01 X-1.2934 Y0.7187 
G01 X-1.2951 Y0.7229 
G01 X-1.2960 Y0.7273 
G01 X-1.2960 Y0.7318 
G01 X-1.2960 Y0.8058 
G01 X-1.3004 Y0.8164 
G01 X-1.3134 Y0.8294 
G01 X-1.3238 Y0.8398 
G01 X-1.3336 Y0.8496 
G01 X-1.3442 Y0.8540 
G01 X-1.7138 Y0.8540 
G01 X-1.7146 Y0.8542 
G01 X-1.7182 Y0.8549 
G01 X-1.7207 Y0.8559 
G01 X-1.7224 Y0.8566 
G01 X-1.7249 Y0.8583 
G01 X-1.7262 Y0.8591 
G01 X-1.7294 Y0.8623 
G01 X-1.7319 Y0.8661 
G01 X-1.7329 Y0.8687 
G01 X-1.7336 Y0.8703 
G01 X-1.7360 Y0.8761 
G01 X-1.7421 Y0.8821 
G01 X-1.7453 Y0.8853 
G01 X-1.7473 Y0.8883 
G01 X-1.7478 Y0.8891 
G01 X-1.7495 Y0.8933 
G01 X-1.7504 Y0.8977 
G01 X-1.7504 Y0.9023 
G01 X-1.7495 Y0.9067 
G01 X-1.7481 Y0.9102 
G01 X-1.7478 Y0.9109 
G01 X-1.7473 Y0.9116 
G01 X-1.7453 Y0.9147 
G01 X-1.7438 Y0.9161 
G01 X-1.7321 Y0.9279 
G01 X-1.7283 Y0.9304 
G01 X-1.7241 Y0.9321 
G01 X-1.7197 Y0.9330 
G01 X-1.7151 Y0.9330 
G01 X-1.3156 Y0.9330 
G01 X-1.3111 Y0.9321 
G01 X-1.3069 Y0.9304 
G01 X-1.3032 Y0.9279 
G01 X-1.3000 Y0.9247 
G01 X-1.2952 Y0.9198 
G01 X-1.2821 Y0.9144 
G01 X-1.2627 Y0.9144 
G01 X-1.2583 Y0.9135 
G01 X-1.2541 Y0.9118 
G01 X-1.2503 Y0.9093 
G01 X-1.2471 Y0.9061 
G01 X-1.2446 Y0.9023 
G01 X-1.2429 Y0.8981 
G01 X-1.2420 Y0.8937 
G01 X-1.2420 Y0.8892 
G01 X-1.2420 Y0.7273 
G01 X-1.2429 Y0.7229 
G01 X-1.2446 Y0.7187 
G01 X-1.2471 Y0.7149 
G01 X-1.2503 Y0.7117 
G01 X-1.2541 Y0.7092 
G01 X-1.2583 Y0.7074 
G01 X-1.2627 Y0.7066 
G01 X-1.2673 Y0.7066 
G01 X-1.2753 Y0.7066 
G00 Z0.0200 
G00 X-1.2666 Y1.0330 
G01 Z-0.0030 F8.00  
G01 X-1.2643 Y1.0330 F8.00  
G01 X-1.2643 Y1.0330 
G01 X-1.2617 Y1.0325 
G01 X-1.2599 Y1.0321 
G01 X-1.2576 Y1.0312 
G01 X-1.2557 Y1.0304 
G01 X-1.2541 Y1.0294 
G01 X-1.2519 Y1.0279 
G01 X-1.2508 Y1.0267 
G01 X-1.2505 Y1.0264 
G01 X-1.2496 Y1.0256 
G01 X-1.2473 Y1.0233 
G01 X-1.2465 Y1.0221 
G01 X-1.2448 Y1.0195 
G01 X-1.2430 Y1.0153 
G01 X-1.2424 Y1.0121 
G01 X-1.2421 Y1.0109 
G01 X-1.2421 Y1.0086 
G01 X-1.2421 Y1.0063 
G01 X-1.2426 Y1.0038 
G01 X-1.2430 Y1.0019 
G01 X-1.2439 Y0.9996 
G01 X-1.2447 Y0.9977 
G01 X-1.2457 Y0.9962 
G01 X-1.2472 Y0.9939 
G01 X-1.2483 Y0.9929 
G01 X-1.2504 Y0.9907 
G01 X-1.2516 Y0.9899 
G01 X-1.2542 Y0.9882 
G01 X-1.2584 Y0.9865 
G01 X-1.2616 Y0.9858 
G01 X-1.2628 Y0.9856 
G01 X-1.2651 Y0.9856 
G01 X-1.2674 Y0.9856 
G01 X-1.2821 Y0.9856 
G01 X-1.2952 Y0.9802 
G01 X-1.3032 Y0.9721 
G01 X-1.3069 Y0.9696 
G01 X-1.3111 Y0.9679 
G01 X-1.3156 Y0.9670 
G01 X-1.3201 Y0.9670 
G01 X-1.7197 Y0.9670 
G01 X-1.7241 Y0.9679 
G01 X-1.7283 Y0.9696 
G01 X-1.7321 Y0.9721 
G01 X-1.7353 Y0.9753 
G01 X-1.7421 Y0.9821 
G01 X-1.7453 Y0.9853 
G01 X-1.7478 Y0.9891 
G01 X-1.7495 Y0.9933 
G01 X-1.7504 Y0.9977 
G01 X-1.7504 Y1.0023 
G01 X-1.7495 Y1.0067 
G01 X-1.7478 Y1.0109 
G01 X-1.7453 Y1.0147 
G01 X-1.7321 Y1.0279 
G01 X-1.7283 Y1.0304 
G01 X-1.7241 Y1.0321 
G01 X-1.7197 Y1.0330 
G01 X-1.7152 Y1.0330 
G01 X-1.2666 Y1.0330 
G00 Z0.0200 
G00 X-1.4296 Y0.6971 
G01 Z-0.0030 F8.00  
G01 X-1.4296 Y0.7029 F8.00  
G01 X-1.4284 Y0.7086 
G01 X-1.4262 Y0.7140 
G01 X-1.4230 Y0.7189 
G01 X-1.4189 Y0.7230 
G01 X-1.4140 Y0.7262 
G01 X-1.4086 Y0.7284 
G01 X-1.4029 Y0.7296 
G01 X-1.3971 Y0.7296 
G01 X-1.3914 Y0.7284 
G01 X-1.3860 Y0.7262 
G01 X-1.3811 Y0.7230 
G01 X-1.3770 Y0.7189 
G01 X-1.3738 Y0.7140 
G01 X-1.3716 Y0.7086 
G01 X-1.3704 Y0.7029 
G01 X-1.3704 Y0.6971 
G01 X-1.3716 Y0.6914 
G01 X-1.3728 Y0.6884 
G01 X-1.3594 Y0.6750 
G01 X-1.1547 Y0.6750 
G01 X-1.1543 Y0.6754 
G01 X-1.1532 Y0.6758 
G01 X-1.0870 Y0.6758 
G01 X-1.0859 Y0.6754 
G01 X-1.0851 Y0.6745 
G01 X-1.0846 Y0.6734 
G01 X-1.0846 Y0.6545 
G01 X-1.0851 Y0.6534 
G01 X-1.0859 Y0.6526 
G01 X-1.0870 Y0.6521 
G01 X-1.1532 Y0.6521 
G01 X-1.1543 Y0.6526 
G01 X-1.1547 Y0.6530 
G01 X-1.3625 Y0.6530 
G01 X-1.3654 Y0.6530 
G01 X-1.3682 Y0.6537 
G01 X-1.3707 Y0.6552 
G01 X-1.3884 Y0.6728 
G01 X-1.3914 Y0.6716 
G01 X-1.3971 Y0.6704 
G01 X-1.4029 Y0.6704 
G01 X-1.4086 Y0.6716 
G01 X-1.4140 Y0.6738 
G01 X-1.4189 Y0.6770 
G01 X-1.4230 Y0.6811 
G01 X-1.4262 Y0.6860 
G01 X-1.4284 Y0.6914 
G01 X-1.4296 Y0.6971 
G00 Z0.0200 
G00 X-1.3103 Y0.8179 
G01 Z-0.0030 F8.00  
G01 X-1.3071 Y0.8147 F8.00  
G01 X-1.3046 Y0.8109 
G01 X-1.3029 Y0.8067 
G01 X-1.3020 Y0.8023 
G01 X-1.3020 Y0.7006 
G01 X-1.1547 Y0.7006 
G01 X-1.1543 Y0.7010 
G01 X-1.1532 Y0.7014 
G01 X-1.0870 Y0.7014 
G01 X-1.0859 Y0.7010 
G01 X-1.0851 Y0.7001 
G01 X-1.0846 Y0.6990 
G01 X-1.0846 Y0.6801 
G01 X-1.0851 Y0.6790 
G01 X-1.0859 Y0.6782 
G01 X-1.0870 Y0.6777 
G01 X-1.1532 Y0.6777 
G01 X-1.1543 Y0.6782 
G01 X-1.1547 Y0.6786 
G01 X-1.3131 Y0.6786 
G01 X-1.3160 Y0.6786 
G01 X-1.3164 Y0.6787 
G01 X-1.3183 Y0.6779 
G01 X-1.3227 Y0.6770 
G01 X-1.3273 Y0.6770 
G01 X-1.3317 Y0.6779 
G01 X-1.3359 Y0.6796 
G01 X-1.3397 Y0.6821 
G01 X-1.3429 Y0.6853 
G01 X-1.3454 Y0.6891 
G01 X-1.3471 Y0.6933 
G01 X-1.3480 Y0.6977 
G01 X-1.3480 Y0.7905 
G01 X-1.3595 Y0.8020 
G01 X-1.7477 Y0.8020 
G01 X-1.7523 Y0.8020 
G01 X-1.7567 Y0.8029 
G01 X-1.7609 Y0.8046 
G01 X-1.7647 Y0.8071 
G01 X-1.7681 Y0.8106 
G01 X-1.7711 Y0.8100 
G01 X-1.7789 Y0.8100 
G01 X-1.7867 Y0.8115 
G01 X-1.7939 Y0.8146 
G01 X-1.8005 Y0.8189 
G01 X-1.8061 Y0.8245 
G01 X-1.8104 Y0.8311 
G01 X-1.8135 Y0.8383 
G01 X-1.8150 Y0.8461 
G01 X-1.8150 Y0.8539 
G01 X-1.8135 Y0.8617 
G01 X-1.8104 Y0.8689 
G01 X-1.8061 Y0.8755 
G01 X-1.8005 Y0.8811 
G01 X-1.7939 Y0.8854 
G01 X-1.7867 Y0.8885 
G01 X-1.7789 Y0.8900 
G01 X-1.7711 Y0.8900 
G01 X-1.7633 Y0.8885 
G01 X-1.7561 Y0.8854 
G01 X-1.7495 Y0.8811 
G01 X-1.7439 Y0.8755 
G01 X-1.7396 Y0.8689 
G01 X-1.7365 Y0.8617 
G01 X-1.7350 Y0.8539 
G01 X-1.7350 Y0.8480 
G01 X-1.3477 Y0.8480 
G01 X-1.3433 Y0.8471 
G01 X-1.3391 Y0.8454 
G01 X-1.3353 Y0.8429 
G01 X-1.3321 Y0.8397 
G01 X-1.3103 Y0.8179 
G00 Z0.0200 
G00 X-1.3046 Y1.1127 
G01 Z-0.0030 F8.00  
G01 X-1.3046 Y1.1149 F8.00  
G01 X-1.3068 Y1.1162 
G01 X-1.3296 Y1.1390 
G01 X-1.7364 Y1.1390 
G01 X-1.7365 Y1.1383 
G01 X-1.7396 Y1.1311 
G01 X-1.7439 Y1.1245 
G01 X-1.7495 Y1.1189 
G01 X-1.7561 Y1.1146 
G01 X-1.7633 Y1.1115 
G01 X-1.7711 Y1.1100 
G01 X-1.7789 Y1.1100 
G01 X-1.7867 Y1.1115 
G01 X-1.7939 Y1.1146 
G01 X-1.8005 Y1.1189 
G01 X-1.8061 Y1.1245 
G01 X-1.8104 Y1.1311 
G01 X-1.8135 Y1.1383 
G01 X-1.8150 Y1.1461 
G01 X-1.8150 Y1.1539 
G01 X-1.8135 Y1.1617 
G01 X-1.8104 Y1.1689 
G01 X-1.8061 Y1.1755 
G01 X-1.8005 Y1.1811 
G01 X-1.7939 Y1.1854 
G01 X-1.7867 Y1.1885 
G01 X-1.7789 Y1.1900 
G01 X-1.7711 Y1.1900 
G01 X-1.7633 Y1.1885 
G01 X-1.7561 Y1.1854 
G01 X-1.7495 Y1.1811 
G01 X-1.7439 Y1.1755 
G01 X-1.7396 Y1.1689 
G01 X-1.7365 Y1.1617 
G01 X-1.7364 Y1.1610 
G01 X-1.3235 Y1.1610 
G01 X-1.3208 Y1.1602 
G01 X-1.3182 Y1.1588 
G01 X-1.3162 Y1.1568 
G01 X-1.3006 Y1.1412 
G01 X-1.2872 Y1.1546 
G01 X-1.2627 Y1.1546 
G01 X-1.2454 Y1.1372 
G01 X-1.2454 Y1.1127 
G01 X-1.2627 Y1.0954 
G01 X-1.2872 Y1.0954 
G01 X-1.3046 Y1.1127 
G00 Z0.0200 
G00 X-1.0814 Y0.7529 
G01 Z-0.0030 F8.00  
G01 X-1.0822 Y0.7541 F8.00  
G01 X-1.0831 Y0.7550 
G01 X-1.0843 Y0.7558 
G01 X-1.0856 Y0.7563 
G01 X-1.0869 Y0.7566 
G01 X-1.0971 Y0.7566 
G01 X-1.0971 Y0.7537 
G01 X-1.0973 Y0.7526 
G01 X-1.0870 Y0.7526 
G01 X-1.0859 Y0.7521 
G01 X-1.0855 Y0.7517 
G01 X-1.0809 Y0.7517 
G01 X-1.0814 Y0.7529 
G00 Z0.0200 
G00 X-1.7495 Y1.3811 
G01 Z-0.0030 F8.00  
G01 X-1.7439 Y1.3755 F8.00  
G01 X-1.7423 Y1.3730 
G01 X-1.7375 Y1.3730 
G01 X-1.7383 Y1.3745 
G01 X-1.7418 Y1.3791 
G01 X-1.7459 Y1.3832 
G01 X-1.7505 Y1.3866 
G01 X-1.7520 Y1.3875 
G01 X-1.7520 Y1.3827 
G01 X-1.7495 Y1.3811 
G00 Z0.0200 
G00 X-0.9403 Y0.6880 
G01 Z-0.0030 F8.00  
G01 X-0.9392 Y0.6876 F8.00  
G01 X-0.9384 Y0.6867 
G01 X-0.9379 Y0.6856 
G01 X-0.9379 Y0.5144 
G01 X-0.9384 Y0.5133 
G01 X-0.9392 Y0.5124 
G01 X-0.9403 Y0.5120 
G01 X-0.9675 Y0.5120 
G01 X-0.9675 Y0.5080 
G01 X-0.9421 Y0.5080 
G01 X-0.9377 Y0.5071 
G01 X-0.9335 Y0.5053 
G01 X-0.9297 Y0.5028 
G01 X-0.9265 Y0.4996 
G01 X-0.9240 Y0.4959 
G01 X-0.9223 Y0.4917 
G01 X-0.9214 Y0.4872 
G01 X-0.9214 Y0.4827 
G01 X-0.9214 Y0.4722 
G01 X-0.9214 Y0.4486 
G01 X-0.9200 Y0.4453 
G01 X-0.9175 Y0.4428 
G01 X-0.9142 Y0.4414 
G01 X-0.9127 Y0.4414 
G01 X-0.9083 Y0.4405 
G01 X-0.9041 Y0.4388 
G01 X-0.9003 Y0.4363 
G01 X-0.8971 Y0.4331 
G01 X-0.8946 Y0.4293 
G01 X-0.8929 Y0.4251 
G01 X-0.8924 Y0.4225 
G01 X-0.8894 Y0.4154 
G01 X-0.8660 Y0.3920 
G01 X-0.8596 Y0.3856 
G01 X-0.8534 Y0.3830 
G01 X-0.8396 Y0.3830 
G01 X-0.8373 Y0.3830 
G01 X-0.8351 Y0.3830 
G01 X-0.8339 Y0.3828 
G01 X-0.8306 Y0.3821 
G01 X-0.8264 Y0.3804 
G01 X-0.8241 Y0.3788 
G01 X-0.8230 Y0.3781 
G01 X-0.8195 Y0.3766 
G01 X-0.7993 Y0.3766 
G01 X-0.7986 Y0.3765 
G01 X-0.7948 Y0.3757 
G01 X-0.7906 Y0.3740 
G01 X-0.7869 Y0.3715 
G01 X-0.7837 Y0.3683 
G01 X-0.7812 Y0.3645 
G01 X-0.7794 Y0.3603 
G01 X-0.7785 Y0.3559 
G01 X-0.7785 Y0.3514 
G01 X-0.7787 Y0.3507 
G01 X-0.7794 Y0.3469 
G01 X-0.7812 Y0.3427 
G01 X-0.7856 Y0.3321 
G01 X-0.7856 Y0.3179 
G01 X-0.7802 Y0.3048 
G01 X-0.7702 Y0.2948 
G01 X-0.7571 Y0.2894 
G01 X-0.7429 Y0.2894 
G01 X-0.7298 Y0.2948 
G01 X-0.7198 Y0.3048 
G01 X-0.7144 Y0.3179 
G01 X-0.7144 Y0.3248 
G01 X-0.7144 Y0.3268 
G01 X-0.7144 Y0.3293 
G01 X-0.7144 Y0.3294 
G01 X-0.7140 Y0.3312 
G01 X-0.7135 Y0.3337 
G01 X-0.7135 Y0.3338 
G01 X-0.7127 Y0.3356 
G01 X-0.7118 Y0.3379 
G01 X-0.7117 Y0.3380 
G01 X-0.7113 Y0.3387 
G01 X-0.7079 Y0.3469 
G01 X-0.7077 Y0.3480 
G01 X-0.7071 Y0.3507 
G01 X-0.7063 Y0.3526 
G01 X-0.7054 Y0.3549 
G01 X-0.7038 Y0.3573 
G01 X-0.7029 Y0.3587 
G01 X-0.7009 Y0.3607 
G01 X-0.6997 Y0.3619 
G01 X-0.6974 Y0.3634 
G01 X-0.6959 Y0.3644 
G01 X-0.6936 Y0.3654 
G01 X-0.6917 Y0.3662 
G01 X-0.6894 Y0.3666 
G01 X-0.6873 Y0.3670 
G01 X-0.6860 Y0.3670 
G01 X-0.6860 Y0.3680 
G01 X-0.6852 Y0.3708 
G01 X-0.6838 Y0.3733 
G01 X-0.6730 Y0.3841 
G01 X-0.6730 Y0.3938 
G01 X-0.6727 Y0.3954 
G01 X-0.6727 Y0.4138 
G01 X-0.6722 Y0.4149 
G01 X-0.6714 Y0.4157 
G01 X-0.6703 Y0.4162 
G01 X-0.6297 Y0.4162 
G01 X-0.6286 Y0.4157 
G01 X-0.6278 Y0.4149 
G01 X-0.6276 Y0.4145 
G01 X-0.6234 Y0.4145 
G01 X-0.6236 Y0.4152 
G01 X-0.6238 Y0.4156 
G01 X-0.6243 Y0.4185 
G01 X-0.6246 Y0.4201 
G01 X-0.6246 Y0.4223 
G01 X-0.6247 Y0.4246 
G01 X-0.6243 Y0.4262 
G01 X-0.6238 Y0.4291 
G01 X-0.6234 Y0.4301 
G01 X-0.6220 Y0.4332 
G01 X-0.6213 Y0.4350 
G01 X-0.6213 Y0.4819 
G01 X-0.6227 Y0.4852 
G01 X-0.6279 Y0.4904 
G01 X-0.6292 Y0.4924 
G01 X-0.6304 Y0.4942 
G01 X-0.6321 Y0.4983 
G01 X-0.6327 Y0.5013 
G01 X-0.6330 Y0.5028 
G01 X-0.6330 Y0.5073 
G01 X-0.6330 Y0.5239 
G01 X-0.6321 Y0.5283 
G01 X-0.6304 Y0.5325 
G01 X-0.6279 Y0.5363 
G01 X-0.6247 Y0.5395 
G01 X-0.6209 Y0.5420 
G01 X-0.6167 Y0.5437 
G01 X-0.6123 Y0.5446 
G01 X-0.6077 Y0.5446 
G01 X-0.5580 Y0.5446 
G01 X-0.5561 Y0.5447 
G01 X-0.5556 Y0.5446 
G01 X-0.5552 Y0.5446 
G01 X-0.5535 Y0.5443 
G01 X-0.5516 Y0.5440 
G01 X-0.5512 Y0.5438 
G01 X-0.5508 Y0.5437 
G01 X-0.5491 Y0.5430 
G01 X-0.5474 Y0.5424 
G01 X-0.5470 Y0.5422 
G01 X-0.5466 Y0.5420 
G01 X-0.5451 Y0.5410 
G01 X-0.5435 Y0.5400 
G01 X-0.5432 Y0.5397 
G01 X-0.5428 Y0.5395 
G01 X-0.5416 Y0.5382 
G01 X-0.5402 Y0.5369 
G01 X-0.5399 Y0.5366 
G01 X-0.5396 Y0.5363 
G01 X-0.5386 Y0.5348 
G01 X-0.5375 Y0.5333 
G01 X-0.5373 Y0.5329 
G01 X-0.5371 Y0.5325 
G01 X-0.5364 Y0.5309 
G01 X-0.5356 Y0.5292 
G01 X-0.5355 Y0.5287 
G01 X-0.5354 Y0.5283 
G01 X-0.5350 Y0.5266 
G01 X-0.5346 Y0.5248 
G01 X-0.5346 Y0.5243 
G01 X-0.5345 Y0.5239 
G01 X-0.5345 Y0.5221 
G01 X-0.5344 Y0.5202 
G01 X-0.5345 Y0.5198 
G01 X-0.5345 Y0.5193 
G01 X-0.5348 Y0.5176 
G01 X-0.5351 Y0.5158 
G01 X-0.5353 Y0.5153 
G01 X-0.5354 Y0.5149 
G01 X-0.5361 Y0.5132 
G01 X-0.5367 Y0.5115 
G01 X-0.5369 Y0.5111 
G01 X-0.5371 Y0.5107 
G01 X-0.5381 Y0.5092 
G01 X-0.5391 Y0.5076 
G01 X-0.5394 Y0.5073 
G01 X-0.5396 Y0.5070 
G01 X-0.5409 Y0.5057 
G01 X-0.5421 Y0.5043 
G01 X-0.5425 Y0.5041 
G01 X-0.5428 Y0.5037 
G01 X-0.5443 Y0.5028 
G01 X-0.5465 Y0.5012 
G01 X-0.5502 Y0.4975 
G01 X-0.5532 Y0.4933 
G01 X-0.5556 Y0.4887 
G01 X-0.5572 Y0.4837 
G01 X-0.5580 Y0.4786 
G01 X-0.5580 Y0.4730 
G01 X-0.5540 Y0.4730 
G01 X-0.5540 Y0.4789 
G01 X-0.5529 Y0.4845 
G01 X-0.5507 Y0.4897 
G01 X-0.5475 Y0.4945 
G01 X-0.5435 Y0.4985 
G01 X-0.5387 Y0.5017 
G01 X-0.5335 Y0.5039 
G01 X-0.5279 Y0.5050 
G01 X-0.5221 Y0.5050 
G01 X-0.5165 Y0.5039 
G01 X-0.5113 Y0.5017 
G01 X-0.5065 Y0.4985 
G01 X-0.5025 Y0.4945 
G01 X-0.4993 Y0.4897 
G01 X-0.4971 Y0.4845 
G01 X-0.4960 Y0.4789 
G01 X-0.4960 Y0.4730 
G01 X-0.4833 Y0.4730 
G01 X-0.4540 Y0.4730 
G01 X-0.4540 Y0.4789 
G01 X-0.4529 Y0.4845 
G01 X-0.4507 Y0.4897 
G01 X-0.4475 Y0.4945 
G01 X-0.4435 Y0.4985 
G01 X-0.4387 Y0.5017 
G01 X-0.4335 Y0.5039 
G01 X-0.4279 Y0.5050 
G01 X-0.4221 Y0.5050 
G01 X-0.4165 Y0.5039 
G01 X-0.4113 Y0.5017 
G01 X-0.4065 Y0.4985 
G01 X-0.4025 Y0.4945 
G01 X-0.3993 Y0.4897 
G01 X-0.3971 Y0.4845 
G01 X-0.3960 Y0.4789 
G01 X-0.3960 Y0.4730 
G01 X-0.3920 Y0.4730 
G01 X-0.3920 Y0.4786 
G01 X-0.3928 Y0.4837 
G01 X-0.3944 Y0.4887 
G01 X-0.3968 Y0.4933 
G01 X-0.3998 Y0.4975 
G01 X-0.4035 Y0.5012 
G01 X-0.4056 Y0.5027 
G01 X-0.4072 Y0.5037 
G01 X-0.4075 Y0.5041 
G01 X-0.4079 Y0.5043 
G01 X-0.4091 Y0.5057 
G01 X-0.4104 Y0.5070 
G01 X-0.4106 Y0.5073 
G01 X-0.4109 Y0.5076 
G01 X-0.4119 Y0.5092 
G01 X-0.4129 Y0.5107 
G01 X-0.4131 Y0.5111 
G01 X-0.4133 Y0.5115 
G01 X-0.4139 Y0.5132 
G01 X-0.4146 Y0.5149 
G01 X-0.4147 Y0.5154 
G01 X-0.4149 Y0.5158 
G01 X-0.4152 Y0.5176 
G01 X-0.4155 Y0.5193 
G01 X-0.4155 Y0.5198 
G01 X-0.4156 Y0.5202 
G01 X-0.4155 Y0.5221 
G01 X-0.4155 Y0.5239 
G01 X-0.4154 Y0.5243 
G01 X-0.4154 Y0.5248 
G01 X-0.4150 Y0.5265 
G01 X-0.4146 Y0.5283 
G01 X-0.4145 Y0.5287 
G01 X-0.4144 Y0.5292 
G01 X-0.4136 Y0.5308 
G01 X-0.4129 Y0.5325 
G01 X-0.4126 Y0.5329 
G01 X-0.4125 Y0.5333 
G01 X-0.4114 Y0.5348 
G01 X-0.4104 Y0.5363 
G01 X-0.4101 Y0.5366 
G01 X-0.4098 Y0.5369 
G01 X-0.4085 Y0.5382 
G01 X-0.4072 Y0.5395 
G01 X-0.4068 Y0.5397 
G01 X-0.4065 Y0.5400 
G01 X-0.4049 Y0.5410 
G01 X-0.4034 Y0.5420 
G01 X-0.4030 Y0.5422 
G01 X-0.4026 Y0.5424 
G01 X-0.4009 Y0.5430 
G01 X-0.3992 Y0.5437 
G01 X-0.3988 Y0.5438 
G01 X-0.3984 Y0.5440 
G01 X-0.3966 Y0.5443 
G01 X-0.3948 Y0.5446 
G01 X-0.3943 Y0.5446 
G01 X-0.3939 Y0.5447 
G01 X-0.3920 Y0.5446 
G01 X-0.3627 Y0.5446 
G01 X-0.3583 Y0.5437 
G01 X-0.3541 Y0.5420 
G01 X-0.3503 Y0.5395 
G01 X-0.3471 Y0.5363 
G01 X-0.3446 Y0.5325 
G01 X-0.3429 Y0.5283 
G01 X-0.3420 Y0.5239 
G01 X-0.3420 Y0.5193 
G01 X-0.3420 Y0.4807 
G01 X-0.3420 Y0.3393 
G01 X-0.3429 Y0.3349 
G01 X-0.3446 Y0.3307 
G01 X-0.3471 Y0.3269 
G01 X-0.3503 Y0.3237 
G01 X-0.3519 Y0.3221 
G01 X-0.3557 Y0.3196 
G01 X-0.3599 Y0.3179 
G01 X-0.3643 Y0.3170 
G01 X-0.3688 Y0.3170 
G01 X-0.5034 Y0.3170 
G01 X-0.5096 Y0.3144 
G01 X-0.5192 Y0.3048 
G01 X-0.5394 Y0.2846 
G01 X-0.5420 Y0.2784 
G01 X-0.5420 Y0.2648 
G01 X-0.5420 Y0.2157 
G01 X-0.5423 Y0.2143 
G01 X-0.5429 Y0.2113 
G01 X-0.5439 Y0.2088 
G01 X-0.5446 Y0.2071 
G01 X-0.5463 Y0.2046 
G01 X-0.5471 Y0.2034 
G01 X-0.5503 Y0.2001 
G01 X-0.5547 Y0.1958 
G01 X-0.5600 Y0.1830 
G01 X-0.5600 Y0.1170 
G01 X-0.5547 Y0.1042 
G01 X-0.5448 Y0.0943 
G01 X-0.5320 Y0.0890 
G01 X-0.5180 Y0.0890 
G01 X-0.5052 Y0.0943 
G01 X-0.4952 Y0.1042 
G01 X-0.4943 Y0.1056 
G01 X-0.4929 Y0.1078 
G01 X-0.4912 Y0.1094 
G01 X-0.4897 Y0.1110 
G01 X-0.4882 Y0.1120 
G01 X-0.4859 Y0.1135 
G01 X-0.4823 Y0.1150 
G01 X-0.4817 Y0.1153 
G01 X-0.4789 Y0.1158 
G01 X-0.4773 Y0.1162 
G01 X-0.4750 Y0.1162 
G01 X-0.4727 Y0.1162 
G01 X-0.4709 Y0.1158 
G01 X-0.4683 Y0.1153 
G01 X-0.4673 Y0.1149 
G01 X-0.4641 Y0.1135 
G01 X-0.4625 Y0.1125 
G01 X-0.4603 Y0.1110 
G01 X-0.4587 Y0.1094 
G01 X-0.4571 Y0.1078 
G01 X-0.4562 Y0.1064 
G01 X-0.4547 Y0.1042 
G01 X-0.4448 Y0.0943 
G01 X-0.4320 Y0.0890 
G01 X-0.4180 Y0.0890 
G01 X-0.4052 Y0.0943 
G01 X-0.3953 Y0.1042 
G01 X-0.3901 Y0.1167 
G01 X-0.3896 Y0.1180 
G01 X-0.3884 Y0.1209 
G01 X-0.3859 Y0.1247 
G01 X-0.3827 Y0.1279 
G01 X-0.3789 Y0.1304 
G01 X-0.3747 Y0.1321 
G01 X-0.3711 Y0.1328 
G01 X-0.3703 Y0.1330 
G01 X-0.3658 Y0.1330 
G01 X-0.1557 Y0.1330 
G01 X-0.1466 Y0.1330 
G01 X-0.1404 Y0.1356 
G01 X-0.1170 Y0.1590 
G01 X-0.1106 Y0.1654 
G01 X-0.1080 Y0.1716 
G01 X-0.1080 Y0.5284 
G01 X-0.1106 Y0.5346 
G01 X-0.1202 Y0.5442 
G01 X-0.1308 Y0.5549 
G01 X-0.1385 Y0.5625 
G01 X-0.1396 Y0.5637 
G01 X-0.1417 Y0.5657 
G01 X-0.1425 Y0.5669 
G01 X-0.1442 Y0.5695 
G01 X-0.1443 Y0.5698 
G01 X-0.1543 Y0.5798 
G01 X-0.1578 Y0.5821 
G01 X-0.1610 Y0.5853 
G01 X-0.1635 Y0.5891 
G01 X-0.1653 Y0.5933 
G01 X-0.1662 Y0.5978 
G01 X-0.1662 Y0.6000 
G01 X-0.1662 Y0.6023 
G01 X-0.1653 Y0.6067 
G01 X-0.1650 Y0.6074 
G01 X-0.1635 Y0.6109 
G01 X-0.1610 Y0.6147 
G01 X-0.1578 Y0.6179 
G01 X-0.1543 Y0.6202 
G01 X-0.1443 Y0.6302 
G01 X-0.1390 Y0.6430 
G01 X-0.1390 Y0.6570 
G01 X-0.1443 Y0.6698 
G01 X-0.1543 Y0.6798 
G01 X-0.1578 Y0.6821 
G01 X-0.1610 Y0.6853 
G01 X-0.1635 Y0.6890 
G01 X-0.2826 Y0.6890 
G01 X-0.2826 Y0.6817 
G01 X-0.2831 Y0.6806 
G01 X-0.2839 Y0.6797 
G01 X-0.2850 Y0.6793 
G01 X-0.3138 Y0.6793 
G01 X-0.3149 Y0.6797 
G01 X-0.3157 Y0.6806 
G01 X-0.3162 Y0.6817 
G01 X-0.3162 Y0.7183 
G01 X-0.3157 Y0.7194 
G01 X-0.3149 Y0.7203 
G01 X-0.3138 Y0.7207 
G01 X-0.2850 Y0.7207 
G01 X-0.2839 Y0.7203 
G01 X-0.2831 Y0.7194 
G01 X-0.2826 Y0.7183 
G01 X-0.2826 Y0.7110 
G01 X-0.1635 Y0.7110 
G01 X-0.1610 Y0.7147 
G01 X-0.1578 Y0.7179 
G01 X-0.1543 Y0.7202 
G01 X-0.1443 Y0.7302 
G01 X-0.1390 Y0.7430 
G01 X-0.1390 Y0.7570 
G01 X-0.1443 Y0.7698 
G01 X-0.1543 Y0.7798 
G01 X-0.1578 Y0.7821 
G01 X-0.1610 Y0.7853 
G01 X-0.1635 Y0.7891 
G01 X-0.1653 Y0.7933 
G01 X-0.1662 Y0.7978 
G01 X-0.1662 Y0.8000 
G01 X-0.1662 Y0.8023 
G01 X-0.1653 Y0.8067 
G01 X-0.1650 Y0.8074 
G01 X-0.1635 Y0.8109 
G01 X-0.1610 Y0.8147 
G01 X-0.1578 Y0.8179 
G01 X-0.1543 Y0.8202 
G01 X-0.1443 Y0.8302 
G01 X-0.1390 Y0.8430 
G01 X-0.1390 Y0.8570 
G01 X-0.1443 Y0.8698 
G01 X-0.1542 Y0.8797 
G01 X-0.1597 Y0.8820 
G01 X-0.1639 Y0.8837 
G01 X-0.1676 Y0.8862 
G01 X-0.1709 Y0.8894 
G01 X-0.1734 Y0.8932 
G01 X-0.1751 Y0.8974 
G01 X-0.1758 Y0.9010 
G01 X-0.1760 Y0.9018 
G01 X-0.1760 Y0.9063 
G01 X-0.1760 Y1.2298 
G01 X-0.1796 Y1.2386 
G01 X-0.1912 Y1.2502 
G01 X-0.2030 Y1.2620 
G01 X-0.2114 Y1.2703 
G01 X-0.2202 Y1.2740 
G01 X-0.6914 Y1.2740 
G01 X-0.6959 Y1.2749 
G01 X-0.7001 Y1.2766 
G01 X-0.7038 Y1.2791 
G01 X-0.7070 Y1.2823 
G01 X-0.7103 Y1.2856 
G01 X-0.7397 Y1.2856 
G01 X-0.7606 Y1.2647 
G01 X-0.7606 Y1.2353 
G01 X-0.7397 Y1.2144 
G01 X-0.7103 Y1.2144 
G01 X-0.7038 Y1.2209 
G01 X-0.7001 Y1.2234 
G01 X-0.6959 Y1.2251 
G01 X-0.6914 Y1.2260 
G01 X-0.6869 Y1.2260 
G01 X-0.2447 Y1.2260 
G01 X-0.2403 Y1.2251 
G01 X-0.2361 Y1.2234 
G01 X-0.2323 Y1.2209 
G01 X-0.2291 Y1.2177 
G01 X-0.2266 Y1.2139 
G01 X-0.2249 Y1.2097 
G01 X-0.2240 Y1.2053 
G01 X-0.2240 Y1.2007 
G01 X-0.2240 Y0.9018 
G01 X-0.2241 Y0.9011 
G01 X-0.2249 Y0.8974 
G01 X-0.2266 Y0.8932 
G01 X-0.2291 Y0.8894 
G01 X-0.2323 Y0.8863 
G01 X-0.2361 Y0.8837 
G01 X-0.2403 Y0.8820 
G01 X-0.2458 Y0.8797 
G01 X-0.2475 Y0.8780 
G01 X-0.2482 Y0.8775 
G01 X-0.2513 Y0.8754 
G01 X-0.2555 Y0.8737 
G01 X-0.2636 Y0.8703 
G01 X-0.2798 Y0.8541 
G01 X-0.2836 Y0.8516 
G01 X-0.2878 Y0.8499 
G01 X-0.2922 Y0.8490 
G01 X-0.2967 Y0.8490 
G01 X-0.4025 Y0.8490 
G01 X-0.4070 Y0.8499 
G01 X-0.4112 Y0.8516 
G01 X-0.4149 Y0.8541 
G01 X-0.4181 Y0.8573 
G01 X-0.4207 Y0.8611 
G01 X-0.4224 Y0.8653 
G01 X-0.4233 Y0.8697 
G01 X-0.4233 Y0.8743 
G01 X-0.4233 Y0.8912 
G01 X-0.4246 Y0.8945 
G01 X-0.4279 Y0.8977 
G01 X-0.4304 Y0.9014 
G01 X-0.4321 Y0.9056 
G01 X-0.4330 Y0.9101 
G01 X-0.4330 Y0.9146 
G01 X-0.4330 Y0.9697 
G01 X-0.4321 Y0.9741 
G01 X-0.4304 Y0.9783 
G01 X-0.4279 Y0.9821 
G01 X-0.4247 Y0.9853 
G01 X-0.4110 Y0.9989 
G01 X-0.4040 Y1.0158 
G01 X-0.4040 Y1.0341 
G01 X-0.4110 Y1.0511 
G01 X-0.4217 Y1.0617 
G01 X-0.4225 Y1.0629 
G01 X-0.4242 Y1.0655 
G01 X-0.4250 Y1.0673 
G01 X-0.4259 Y1.0697 
G01 X-0.4266 Y1.0732 
G01 X-0.4268 Y1.0741 
G01 X-0.4268 Y1.0787 
G01 X-0.4259 Y1.0831 
G01 X-0.4252 Y1.0848 
G01 X-0.4242 Y1.0873 
G01 X-0.4217 Y1.0911 
G01 X-0.4185 Y1.0943 
G01 X-0.4168 Y1.0959 
G01 X-0.4133 Y1.1005 
G01 X-0.4125 Y1.1020 
G01 X-0.4173 Y1.1020 
G01 X-0.4189 Y1.0995 
G01 X-0.4245 Y1.0939 
G01 X-0.4311 Y1.0896 
G01 X-0.4383 Y1.0865 
G01 X-0.4461 Y1.0850 
G01 X-0.4539 Y1.0850 
G01 X-0.4617 Y1.0865 
G01 X-0.4689 Y1.0896 
G01 X-0.4755 Y1.0939 
G01 X-0.4811 Y1.0995 
G01 X-0.4827 Y1.1020 
G01 X-0.4875 Y1.1020 
G01 X-0.4866 Y1.1005 
G01 X-0.4832 Y1.0959 
G01 X-0.4814 Y1.0942 
G01 X-0.4783 Y1.0911 
G01 X-0.4758 Y1.0873 
G01 X-0.4748 Y1.0849 
G01 X-0.4740 Y1.0831 
G01 X-0.4732 Y1.0787 
G01 X-0.4732 Y1.0741 
G01 X-0.4733 Y1.0733 
G01 X-0.4740 Y1.0697 
G01 X-0.4751 Y1.0672 
G01 X-0.4758 Y1.0655 
G01 X-0.4774 Y1.0630 
G01 X-0.4783 Y1.0617 
G01 X-0.4815 Y1.0585 
G01 X-0.4890 Y1.0511 
G01 X-0.4960 Y1.0341 
G01 X-0.4960 Y1.0158 
G01 X-0.4890 Y0.9989 
G01 X-0.4721 Y0.9821 
G01 X-0.4696 Y0.9783 
G01 X-0.4679 Y0.9741 
G01 X-0.4670 Y0.9697 
G01 X-0.4670 Y0.9651 
G01 X-0.4670 Y0.9101 
G01 X-0.4679 Y0.9056 
G01 X-0.4696 Y0.9014 
G01 X-0.4721 Y0.8977 
G01 X-0.4753 Y0.8945 
G01 X-0.4767 Y0.8912 
G01 X-0.4767 Y0.8600 
G01 X-0.4753 Y0.8567 
G01 X-0.4746 Y0.8530 
G01 X-0.4745 Y0.8523 
G01 X-0.4745 Y0.8477 
G01 X-0.4753 Y0.8433 
G01 X-0.4767 Y0.8400 
G01 X-0.4767 Y0.8088 
G01 X-0.4753 Y0.8055 
G01 X-0.4721 Y0.8023 
G01 X-0.4696 Y0.7985 
G01 X-0.4679 Y0.7944 
G01 X-0.4670 Y0.7899 
G01 X-0.4670 Y0.7854 
G01 X-0.4670 Y0.7273 
G01 X-0.4679 Y0.7229 
G01 X-0.4696 Y0.7187 
G01 X-0.4721 Y0.7149 
G01 X-0.4753 Y0.7117 
G01 X-0.4791 Y0.7092 
G01 X-0.4833 Y0.7074 
G01 X-0.4877 Y0.7066 
G01 X-0.4923 Y0.7066 
G01 X-0.5006 Y0.7066 
G01 X-0.5050 Y0.7074 
G01 X-0.5092 Y0.7092 
G01 X-0.5130 Y0.7117 
G01 X-0.5162 Y0.7149 
G01 X-0.5187 Y0.7187 
G01 X-0.5204 Y0.7229 
G01 X-0.5213 Y0.7273 
G01 X-0.5213 Y0.7318 
G01 X-0.5213 Y0.7400 
G01 X-0.5220 Y0.7417 
G01 X-0.5233 Y0.7448 
G01 X-0.5238 Y0.7459 
G01 X-0.5243 Y0.7487 
G01 X-0.5246 Y0.7503 
G01 X-0.5246 Y0.7526 
G01 X-0.5246 Y0.7549 
G01 X-0.5243 Y0.7565 
G01 X-0.5238 Y0.7593 
G01 X-0.5236 Y0.7598 
G01 X-0.5234 Y0.7604 
G01 X-0.5276 Y0.7604 
G01 X-0.5278 Y0.7601 
G01 X-0.5286 Y0.7593 
G01 X-0.5297 Y0.7588 
G01 X-0.5703 Y0.7588 
G01 X-0.5714 Y0.7593 
G01 X-0.5722 Y0.7601 
G01 X-0.5727 Y0.7612 
G01 X-0.5727 Y0.7796 
G01 X-0.5730 Y0.7812 
G01 X-0.5730 Y0.7858 
G01 X-0.5730 Y0.8113 
G01 X-0.5740 Y0.8106 
G01 X-0.5764 Y0.8096 
G01 X-0.5782 Y0.8089 
G01 X-0.5810 Y0.8083 
G01 X-0.5827 Y0.8080 
G01 X-0.5849 Y0.8080 
G01 X-0.5872 Y0.8079 
G01 X-0.5894 Y0.8084 
G01 X-0.5916 Y0.8088 
G01 X-0.5936 Y0.8096 
G01 X-0.5958 Y0.8105 
G01 X-0.5974 Y0.8116 
G01 X-0.5996 Y0.8130 
G01 X-0.6009 Y0.8143 
G01 X-0.6028 Y0.8162 
G01 X-0.6038 Y0.8177 
G01 X-0.6053 Y0.8200 
G01 X-0.6063 Y0.8223 
G01 X-0.6071 Y0.8242 
G01 X-0.6076 Y0.8269 
G01 X-0.6080 Y0.8286 
G01 X-0.6080 Y0.8309 
G01 X-0.6080 Y0.8331 
G01 X-0.6080 Y0.9429 
G01 X-0.6080 Y0.9520 
G01 X-0.6106 Y0.9582 
G01 X-0.6110 Y0.9587 
G01 X-0.6136 Y0.9625 
G01 X-0.6153 Y0.9666 
G01 X-0.6160 Y0.9703 
G01 X-0.6162 Y0.9711 
G01 X-0.6162 Y0.9733 
G01 X-0.6162 Y0.9756 
G01 X-0.6162 Y0.9880 
G01 X-0.6177 Y0.9917 
G01 X-0.6195 Y0.9959 
G01 X-0.6203 Y1.0003 
G01 X-0.6203 Y1.0049 
G01 X-0.6199 Y1.0071 
G01 X-0.6195 Y1.0093 
G01 X-0.6190 Y1.0104 
G01 X-0.6451 Y1.0104 
G01 X-0.6468 Y1.0108 
G01 X-0.6612 Y1.0108 
G01 X-0.6623 Y1.0112 
G01 X-0.6632 Y1.0121 
G01 X-0.6636 Y1.0132 
G01 X-0.6636 Y1.0234 
G01 X-0.6650 Y1.0268 
G01 X-0.6659 Y1.0312 
G01 X-0.6659 Y1.0358 
G01 X-0.6659 Y1.0609 
G01 X-0.6667 Y1.0610 
G01 X-0.6709 Y1.0628 
G01 X-0.6747 Y1.0653 
G01 X-0.6779 Y1.0685 
G01 X-0.6804 Y1.0722 
G01 X-0.6821 Y1.0764 
G01 X-0.6830 Y1.0809 
G01 X-0.6830 Y1.0854 
G01 X-0.6830 Y1.0943 
G01 X-0.6830 Y1.1034 
G01 X-0.6863 Y1.1113 
G01 X-0.6868 Y1.1121 
G01 X-0.6885 Y1.1163 
G01 X-0.6894 Y1.1207 
G01 X-0.6894 Y1.1253 
G01 X-0.6894 Y1.1397 
G01 X-0.7103 Y1.1606 
G01 X-0.7397 Y1.1606 
G01 X-0.7606 Y1.1397 
G01 X-0.7606 Y1.1103 
G01 X-0.7397 Y1.0894 
G01 X-0.7377 Y1.0894 
G01 X-0.7333 Y1.0885 
G01 X-0.7291 Y1.0868 
G01 X-0.7253 Y1.0843 
G01 X-0.7221 Y1.0811 
G01 X-0.7196 Y1.0773 
G01 X-0.7179 Y1.0731 
G01 X-0.7170 Y1.0687 
G01 X-0.7170 Y1.0642 
G01 X-0.7170 Y1.0514 
G01 X-0.7179 Y1.0469 
G01 X-0.7196 Y1.0428 
G01 X-0.7221 Y1.0390 
G01 X-0.7253 Y1.0358 
G01 X-0.7291 Y1.0333 
G01 X-0.7333 Y1.0315 
G01 X-0.7377 Y1.0306 
G01 X-0.7423 Y1.0306 
G01 X-0.7766 Y1.0306 
G01 X-0.7799 Y1.0293 
G01 X-0.7871 Y1.0221 
G01 X-0.7908 Y1.0196 
G01 X-0.7950 Y1.0179 
G01 X-0.7994 Y1.0170 
G01 X-0.8040 Y1.0170 
G01 X-0.8544 Y1.0170 
G01 X-0.8554 Y1.0168 
G01 X-0.8569 Y1.0165 
G01 X-0.8591 Y1.0165 
G01 X-0.8614 Y1.0165 
G01 X-0.8630 Y1.0168 
G01 X-0.8658 Y1.0174 
G01 X-0.8667 Y1.0177 
G01 X-0.8700 Y1.0191 
G01 X-0.8725 Y1.0208 
G01 X-0.8738 Y1.0216 
G01 X-0.8758 Y1.0236 
G01 X-0.8770 Y1.0248 
G01 X-0.9037 Y1.0515 
G01 X-0.9463 Y1.0515 
G01 X-0.9765 Y1.0213 
G01 X-0.9765 Y0.9787 
G01 X-0.9463 Y0.9485 
G01 X-0.9176 Y0.9485 
G01 X-0.9132 Y0.9476 
G01 X-0.9090 Y0.9459 
G01 X-0.9053 Y0.9434 
G01 X-0.9021 Y0.9402 
G01 X-0.8995 Y0.9364 
G01 X-0.8978 Y0.9322 
G01 X-0.8969 Y0.9278 
G01 X-0.8969 Y0.9232 
G01 X-0.8969 Y0.7789 
G01 X-0.8971 Y0.7782 
G01 X-0.8978 Y0.7744 
G01 X-0.8995 Y0.7702 
G01 X-0.9021 Y0.7665 
G01 X-0.9052 Y0.7633 
G01 X-0.9090 Y0.7607 
G01 X-0.9132 Y0.7590 
G01 X-0.9175 Y0.7572 
G01 X-0.9200 Y0.7547 
G01 X-0.9214 Y0.7514 
G01 X-0.9214 Y0.7233 
G01 X-0.9214 Y0.7128 
G01 X-0.9223 Y0.7083 
G01 X-0.9240 Y0.7041 
G01 X-0.9265 Y0.7004 
G01 X-0.9297 Y0.6972 
G01 X-0.9335 Y0.6947 
G01 X-0.9377 Y0.6929 
G01 X-0.9421 Y0.6920 
G01 X-0.9467 Y0.6920 
G01 X-0.9675 Y0.6920 
G01 X-0.9675 Y0.6880 
G01 X-0.9403 Y0.6880 
G00 Z0.0200 
G00 X-0.4561 Y0.5447 
G01 Z-0.0030 F8.00  
G01 X-0.4557 Y0.5446 F8.00  
G01 X-0.4552 Y0.5446 
G01 X-0.4534 Y0.5443 
G01 X-0.4516 Y0.5440 
G01 X-0.4512 Y0.5438 
G01 X-0.4508 Y0.5437 
G01 X-0.4491 Y0.5430 
G01 X-0.4474 Y0.5424 
G01 X-0.4470 Y0.5422 
G01 X-0.4466 Y0.5420 
G01 X-0.4451 Y0.5410 
G01 X-0.4435 Y0.5400 
G01 X-0.4432 Y0.5397 
G01 X-0.4428 Y0.5395 
G01 X-0.4415 Y0.5382 
G01 X-0.4402 Y0.5369 
G01 X-0.4399 Y0.5366 
G01 X-0.4396 Y0.5363 
G01 X-0.4386 Y0.5348 
G01 X-0.4375 Y0.5333 
G01 X-0.4373 Y0.5329 
G01 X-0.4371 Y0.5325 
G01 X-0.4364 Y0.5308 
G01 X-0.4356 Y0.5292 
G01 X-0.4355 Y0.5287 
G01 X-0.4354 Y0.5283 
G01 X-0.4350 Y0.5265 
G01 X-0.4346 Y0.5248 
G01 X-0.4346 Y0.5243 
G01 X-0.4345 Y0.5239 
G01 X-0.4345 Y0.5221 
G01 X-0.4344 Y0.5202 
G01 X-0.4345 Y0.5198 
G01 X-0.4345 Y0.5193 
G01 X-0.4348 Y0.5175 
G01 X-0.4351 Y0.5158 
G01 X-0.4353 Y0.5154 
G01 X-0.4354 Y0.5149 
G01 X-0.4361 Y0.5132 
G01 X-0.4367 Y0.5115 
G01 X-0.4369 Y0.5111 
G01 X-0.4371 Y0.5107 
G01 X-0.4381 Y0.5092 
G01 X-0.4391 Y0.5076 
G01 X-0.4394 Y0.5073 
G01 X-0.4396 Y0.5070 
G01 X-0.4409 Y0.5057 
G01 X-0.4421 Y0.5043 
G01 X-0.4425 Y0.5041 
G01 X-0.4428 Y0.5037 
G01 X-0.4443 Y0.5027 
G01 X-0.4465 Y0.5012 
G01 X-0.4502 Y0.4975 
G01 X-0.4532 Y0.4933 
G01 X-0.4537 Y0.4924 
G01 X-0.4538 Y0.4919 
G01 X-0.4547 Y0.4903 
G01 X-0.4555 Y0.4888 
G01 X-0.4558 Y0.4884 
G01 X-0.4560 Y0.4880 
G01 X-0.4573 Y0.4866 
G01 X-0.4583 Y0.4852 
G01 X-0.4587 Y0.4849 
G01 X-0.4590 Y0.4845 
G01 X-0.4604 Y0.4834 
G01 X-0.4618 Y0.4823 
G01 X-0.4622 Y0.4820 
G01 X-0.4626 Y0.4817 
G01 X-0.4642 Y0.4809 
G01 X-0.4657 Y0.4800 
G01 X-0.4662 Y0.4799 
G01 X-0.4666 Y0.4797 
G01 X-0.4683 Y0.4792 
G01 X-0.4700 Y0.4786 
G01 X-0.4705 Y0.4786 
G01 X-0.4710 Y0.4785 
G01 X-0.4728 Y0.4783 
G01 X-0.4745 Y0.4781 
G01 X-0.4750 Y0.4781 
G01 X-0.4755 Y0.4781 
G01 X-0.4773 Y0.4783 
G01 X-0.4791 Y0.4785 
G01 X-0.4795 Y0.4786 
G01 X-0.4800 Y0.4786 
G01 X-0.4817 Y0.4792 
G01 X-0.4834 Y0.4797 
G01 X-0.4838 Y0.4799 
G01 X-0.4843 Y0.4800 
G01 X-0.4859 Y0.4809 
G01 X-0.4875 Y0.4817 
G01 X-0.4878 Y0.4820 
G01 X-0.4882 Y0.4823 
G01 X-0.4896 Y0.4835 
G01 X-0.4910 Y0.4846 
G01 X-0.4913 Y0.4849 
G01 X-0.4917 Y0.4852 
G01 X-0.4928 Y0.4867 
G01 X-0.4940 Y0.4880 
G01 X-0.4942 Y0.4884 
G01 X-0.4945 Y0.4888 
G01 X-0.4953 Y0.4904 
G01 X-0.4962 Y0.4919 
G01 X-0.4963 Y0.4924 
G01 X-0.4968 Y0.4933 
G01 X-0.4998 Y0.4975 
G01 X-0.5035 Y0.5012 
G01 X-0.5056 Y0.5027 
G01 X-0.5072 Y0.5037 
G01 X-0.5075 Y0.5041 
G01 X-0.5079 Y0.5043 
G01 X-0.5091 Y0.5057 
G01 X-0.5104 Y0.5070 
G01 X-0.5106 Y0.5073 
G01 X-0.5109 Y0.5076 
G01 X-0.5119 Y0.5092 
G01 X-0.5129 Y0.5107 
G01 X-0.5131 Y0.5111 
G01 X-0.5133 Y0.5115 
G01 X-0.5139 Y0.5132 
G01 X-0.5146 Y0.5149 
G01 X-0.5147 Y0.5154 
G01 X-0.5149 Y0.5158 
G01 X-0.5152 Y0.5176 
G01 X-0.5155 Y0.5193 
G01 X-0.5155 Y0.5198 
G01 X-0.5156 Y0.5202 
G01 X-0.5155 Y0.5221 
G01 X-0.5155 Y0.5239 
G01 X-0.5154 Y0.5243 
G01 X-0.5154 Y0.5248 
G01 X-0.5150 Y0.5265 
G01 X-0.5146 Y0.5283 
G01 X-0.5145 Y0.5287 
G01 X-0.5144 Y0.5292 
G01 X-0.5136 Y0.5308 
G01 X-0.5129 Y0.5325 
G01 X-0.5126 Y0.5329 
G01 X-0.5125 Y0.5333 
G01 X-0.5114 Y0.5348 
G01 X-0.5104 Y0.5363 
G01 X-0.5101 Y0.5366 
G01 X-0.5098 Y0.5369 
G01 X-0.5085 Y0.5382 
G01 X-0.5072 Y0.5395 
G01 X-0.5068 Y0.5397 
G01 X-0.5065 Y0.5400 
G01 X-0.5049 Y0.5410 
G01 X-0.5034 Y0.5420 
G01 X-0.5030 Y0.5422 
G01 X-0.5026 Y0.5424 
G01 X-0.5009 Y0.5430 
G01 X-0.4992 Y0.5437 
G01 X-0.4988 Y0.5438 
G01 X-0.4984 Y0.5440 
G01 X-0.4966 Y0.5443 
G01 X-0.4948 Y0.5446 
G01 X-0.4943 Y0.5446 
G01 X-0.4939 Y0.5447 
G01 X-0.4920 Y0.5446 
G01 X-0.4580 Y0.5446 
G01 X-0.4561 Y0.5447 
G00 Z0.0200 
G00 X-0.4330 Y0.7693 
G01 Z-0.0030 F8.00  
G01 X-0.4330 Y0.7715 F8.00  
G01 X-0.4330 Y0.7738 
G01 X-0.4330 Y0.7757 
G01 X-0.4330 Y0.7803 
G01 X-0.4321 Y0.7847 
G01 X-0.4304 Y0.7889 
G01 X-0.4279 Y0.7927 
G01 X-0.4247 Y0.7959 
G01 X-0.4209 Y0.7984 
G01 X-0.4167 Y0.8001 
G01 X-0.4123 Y0.8010 
G01 X-0.4013 Y0.8010 
G01 X-0.3996 Y0.8007 
G01 X-0.3968 Y0.8001 
G01 X-0.3927 Y0.7984 
G01 X-0.3889 Y0.7959 
G01 X-0.3857 Y0.7927 
G01 X-0.3845 Y0.7909 
G01 X-0.3832 Y0.7889 
G01 X-0.3829 Y0.7882 
G01 X-0.3814 Y0.7847 
G01 X-0.3806 Y0.7803 
G01 X-0.3806 Y0.7757 
G01 X-0.3809 Y0.7740 
G01 X-0.3814 Y0.7713 
G01 X-0.3832 Y0.7671 
G01 X-0.3857 Y0.7633 
G01 X-0.3921 Y0.7569 
G01 X-0.3931 Y0.7559 
G01 X-0.3953 Y0.7537 
G01 X-0.3971 Y0.7525 
G01 X-0.3991 Y0.7512 
G01 X-0.4028 Y0.7497 
G01 X-0.4032 Y0.7495 
G01 X-0.4060 Y0.7489 
G01 X-0.4077 Y0.7486 
G01 X-0.4099 Y0.7486 
G01 X-0.4122 Y0.7486 
G01 X-0.4144 Y0.7490 
G01 X-0.4167 Y0.7494 
G01 X-0.4190 Y0.7504 
G01 X-0.4209 Y0.7512 
G01 X-0.4227 Y0.7524 
G01 X-0.4246 Y0.7537 
G01 X-0.4257 Y0.7547 
G01 X-0.4278 Y0.7569 
G01 X-0.4291 Y0.7587 
G01 X-0.4304 Y0.7606 
G01 X-0.4319 Y0.7643 
G01 X-0.4321 Y0.7648 
G01 X-0.4327 Y0.7676 
G01 X-0.4330 Y0.7692 
G00 Z0.0200 
G00 X-0.7170 Y0.7529 
G01 Z-0.0030 F8.00  
G01 X-0.7179 Y0.7484 F8.00  
G01 X-0.7196 Y0.7443 
G01 X-0.7221 Y0.7405 
G01 X-0.7253 Y0.7373 
G01 X-0.7291 Y0.7348 
G01 X-0.7333 Y0.7330 
G01 X-0.7377 Y0.7322 
G01 X-0.7423 Y0.7322 
G01 X-0.8177 Y0.7322 
G01 X-0.8221 Y0.7330 
G01 X-0.8263 Y0.7348 
G01 X-0.8301 Y0.7373 
G01 X-0.8333 Y0.7405 
G01 X-0.8358 Y0.7443 
G01 X-0.8376 Y0.7484 
G01 X-0.8379 Y0.7500 
G01 X-0.8398 Y0.7547 
G01 X-0.8423 Y0.7572 
G01 X-0.8466 Y0.7590 
G01 X-0.8508 Y0.7607 
G01 X-0.8545 Y0.7632 
G01 X-0.8578 Y0.7665 
G01 X-0.8603 Y0.7702 
G01 X-0.8620 Y0.7744 
G01 X-0.8628 Y0.7781 
G01 X-0.8629 Y0.7789 
G01 X-0.8629 Y0.7834 
G01 X-0.8629 Y0.9558 
G01 X-0.8620 Y0.9602 
G01 X-0.8603 Y0.9644 
G01 X-0.8578 Y0.9682 
G01 X-0.8546 Y0.9714 
G01 X-0.8481 Y0.9779 
G01 X-0.8443 Y0.9804 
G01 X-0.8401 Y0.9821 
G01 X-0.8357 Y0.9830 
G01 X-0.8312 Y0.9830 
G01 X-0.7994 Y0.9830 
G01 X-0.7950 Y0.9821 
G01 X-0.7908 Y0.9804 
G01 X-0.7871 Y0.9779 
G01 X-0.7838 Y0.9747 
G01 X-0.7799 Y0.9707 
G01 X-0.7766 Y0.9693 
G01 X-0.7377 Y0.9693 
G01 X-0.7333 Y0.9685 
G01 X-0.7291 Y0.9667 
G01 X-0.7253 Y0.9642 
G01 X-0.7221 Y0.9610 
G01 X-0.7196 Y0.9572 
G01 X-0.7179 Y0.9531 
G01 X-0.7170 Y0.9486 
G01 X-0.7170 Y0.9441 
G01 X-0.7170 Y0.7529 
G00 Z0.0200 
G00 X-0.6612 Y0.9892 
G01 Z-0.0030 F8.00  
G01 X-0.6246 Y0.9892 F8.00  
G01 X-0.6235 Y0.9888 
G01 X-0.6227 Y0.9879 
G01 X-0.6222 Y0.9868 
G01 X-0.6222 Y0.9614 
G01 X-0.6162 Y0.9554 
G01 X-0.6147 Y0.9529 
G01 X-0.6140 Y0.9501 
G01 X-0.6140 Y0.9472 
G01 X-0.6140 Y0.7924 
G01 X-0.6067 Y0.7924 
G01 X-0.6056 Y0.7919 
G01 X-0.6047 Y0.7911 
G01 X-0.6043 Y0.7900 
G01 X-0.6043 Y0.7612 
G01 X-0.6047 Y0.7601 
G01 X-0.6056 Y0.7593 
G01 X-0.6067 Y0.7588 
G01 X-0.6433 Y0.7588 
G01 X-0.6444 Y0.7593 
G01 X-0.6453 Y0.7601 
G01 X-0.6457 Y0.7612 
G01 X-0.6457 Y0.7900 
G01 X-0.6453 Y0.7911 
G01 X-0.6444 Y0.7919 
G01 X-0.6433 Y0.7924 
G01 X-0.6360 Y0.7924 
G01 X-0.6360 Y0.9439 
G01 X-0.6612 Y0.9439 
G01 X-0.6623 Y0.9443 
G01 X-0.6632 Y0.9451 
G01 X-0.6636 Y0.9463 
G01 X-0.6636 Y0.9868 
G01 X-0.6632 Y0.9879 
G01 X-0.6623 Y0.9888 
G01 X-0.6612 Y0.9892 
G00 Z0.0200 
G00 X-0.4900 Y1.0211 
G01 Z-0.0030 F8.00  
G01 X-0.4900 Y1.0289 F8.00  
G01 X-0.4885 Y1.0367 
G01 X-0.4854 Y1.0439 
G01 X-0.4811 Y1.0505 
G01 X-0.4755 Y1.0561 
G01 X-0.4689 Y1.0604 
G01 X-0.4617 Y1.0635 
G01 X-0.4539 Y1.0650 
G01 X-0.4461 Y1.0650 
G01 X-0.4383 Y1.0635 
G01 X-0.4311 Y1.0604 
G01 X-0.4245 Y1.0561 
G01 X-0.4189 Y1.0505 
G01 X-0.4146 Y1.0439 
G01 X-0.4115 Y1.0367 
G01 X-0.4100 Y1.0289 
G01 X-0.4100 Y1.0211 
G01 X-0.4115 Y1.0133 
G01 X-0.4146 Y1.0061 
G01 X-0.4189 Y0.9995 
G01 X-0.4245 Y0.9939 
G01 X-0.4311 Y0.9896 
G01 X-0.4383 Y0.9865 
G01 X-0.4390 Y0.9864 
G01 X-0.4390 Y0.8924 
G01 X-0.4317 Y0.8924 
G01 X-0.4306 Y0.8919 
G01 X-0.4297 Y0.8911 
G01 X-0.4293 Y0.8900 
G01 X-0.4293 Y0.8612 
G01 X-0.4297 Y0.8601 
G01 X-0.4306 Y0.8593 
G01 X-0.4317 Y0.8588 
G01 X-0.4683 Y0.8588 
G01 X-0.4694 Y0.8593 
G01 X-0.4703 Y0.8601 
G01 X-0.4707 Y0.8612 
G01 X-0.4707 Y0.8900 
G01 X-0.4703 Y0.8911 
G01 X-0.4694 Y0.8919 
G01 X-0.4683 Y0.8924 
G01 X-0.4610 Y0.8924 
G01 X-0.4610 Y0.9864 
G01 X-0.4617 Y0.9865 
G01 X-0.4689 Y0.9896 
G01 X-0.4755 Y0.9939 
G01 X-0.4811 Y0.9995 
G01 X-0.4854 Y1.0061 
G01 X-0.4885 Y1.0133 
G01 X-0.4900 Y1.0211 
G00 Z0.0200 
G00 X-0.9154 Y0.5002 
G01 Z-0.0030 F8.00  
G01 X-0.9154 Y0.5191 F8.00  
G01 X-0.9149 Y0.5202 
G01 X-0.9141 Y0.5210 
G01 X-0.9130 Y0.5215 
G01 X-0.8468 Y0.5215 
G01 X-0.8457 Y0.5210 
G01 X-0.8453 Y0.5206 
G01 X-0.7361 Y0.5206 
G01 X-0.7332 Y0.5206 
G01 X-0.7304 Y0.5199 
G01 X-0.7279 Y0.5184 
G01 X-0.7182 Y0.5088 
G01 X-0.7162 Y0.5068 
G01 X-0.7147 Y0.5042 
G01 X-0.7140 Y0.5014 
G01 X-0.7140 Y0.4674 
G01 X-0.7067 Y0.4674 
G01 X-0.7056 Y0.4669 
G01 X-0.7047 Y0.4661 
G01 X-0.7043 Y0.4650 
G01 X-0.7043 Y0.4362 
G01 X-0.7047 Y0.4351 
G01 X-0.7056 Y0.4343 
G01 X-0.7067 Y0.4338 
G01 X-0.7433 Y0.4338 
G01 X-0.7444 Y0.4343 
G01 X-0.7453 Y0.4351 
G01 X-0.7457 Y0.4362 
G01 X-0.7457 Y0.4650 
G01 X-0.7453 Y0.4661 
G01 X-0.7444 Y0.4669 
G01 X-0.7433 Y0.4674 
G01 X-0.7360 Y0.4674 
G01 X-0.7360 Y0.4954 
G01 X-0.7392 Y0.4986 
G01 X-0.8453 Y0.4986 
G01 X-0.8457 Y0.4982 
G01 X-0.8468 Y0.4978 
G01 X-0.9130 Y0.4978 
G01 X-0.9141 Y0.4982 
G01 X-0.9149 Y0.4991 
G01 X-0.9154 Y0.5002 
G00 Z0.0200 
G00 X-0.9154 Y0.5266 
G01 Z-0.0030 F8.00  
G01 X-0.9154 Y0.5455 F8.00  
G01 X-0.9149 Y0.5466 
G01 X-0.9141 Y0.5474 
G01 X-0.9130 Y0.5479 
G01 X-0.8468 Y0.5479 
G01 X-0.8457 Y0.5474 
G01 X-0.8453 Y0.5470 
G01 X-0.6625 Y0.5470 
G01 X-0.6596 Y0.5470 
G01 X-0.6568 Y0.5463 
G01 X-0.6543 Y0.5448 
G01 X-0.6432 Y0.5338 
G01 X-0.6412 Y0.5318 
G01 X-0.6397 Y0.5292 
G01 X-0.6390 Y0.5264 
G01 X-0.6390 Y0.4831 
G01 X-0.6297 Y0.4831 
G01 X-0.6286 Y0.4827 
G01 X-0.6278 Y0.4818 
G01 X-0.6273 Y0.4807 
G01 X-0.6273 Y0.4362 
G01 X-0.6278 Y0.4351 
G01 X-0.6286 Y0.4343 
G01 X-0.6297 Y0.4338 
G01 X-0.6703 Y0.4338 
G01 X-0.6714 Y0.4343 
G01 X-0.6722 Y0.4351 
G01 X-0.6727 Y0.4362 
G01 X-0.6727 Y0.4807 
G01 X-0.6722 Y0.4818 
G01 X-0.6714 Y0.4827 
G01 X-0.6703 Y0.4831 
G01 X-0.6610 Y0.4831 
G01 X-0.6610 Y0.5204 
G01 X-0.6656 Y0.5250 
G01 X-0.8453 Y0.5250 
G01 X-0.8457 Y0.5246 
G01 X-0.8468 Y0.5242 
G01 X-0.9130 Y0.5242 
G01 X-0.9141 Y0.5246 
G01 X-0.9149 Y0.5255 
G01 X-0.9154 Y0.5266 
G00 Z0.0200 
G00 X-0.9154 Y0.5522 
G01 Z-0.0030 F8.00  
G01 X-0.9154 Y0.5711 F8.00  
G01 X-0.9149 Y0.5722 
G01 X-0.9141 Y0.5730 
G01 X-0.9130 Y0.5735 
G01 X-0.8468 Y0.5735 
G01 X-0.8457 Y0.5730 
G01 X-0.8453 Y0.5726 
G01 X-0.3381 Y0.5726 
G01 X-0.3352 Y0.5726 
G01 X-0.3324 Y0.5719 
G01 X-0.3299 Y0.5704 
G01 X-0.3182 Y0.5588 
G01 X-0.3162 Y0.5568 
G01 X-0.3147 Y0.5542 
G01 X-0.3140 Y0.5514 
G01 X-0.3140 Y0.4796 
G01 X-0.2954 Y0.4610 
G01 X-0.2528 Y0.4610 
G01 X-0.2517 Y0.4637 
G01 X-0.2485 Y0.4685 
G01 X-0.2445 Y0.4725 
G01 X-0.2397 Y0.4757 
G01 X-0.2345 Y0.4779 
G01 X-0.2289 Y0.4790 
G01 X-0.1711 Y0.4790 
G01 X-0.1655 Y0.4779 
G01 X-0.1603 Y0.4757 
G01 X-0.1555 Y0.4725 
G01 X-0.1515 Y0.4685 
G01 X-0.1483 Y0.4637 
G01 X-0.1461 Y0.4585 
G01 X-0.1450 Y0.4529 
G01 X-0.1450 Y0.4471 
G01 X-0.1461 Y0.4415 
G01 X-0.1483 Y0.4363 
G01 X-0.1515 Y0.4315 
G01 X-0.1555 Y0.4275 
G01 X-0.1603 Y0.4243 
G01 X-0.1655 Y0.4221 
G01 X-0.1711 Y0.4210 
G01 X-0.2289 Y0.4210 
G01 X-0.2345 Y0.4221 
G01 X-0.2397 Y0.4243 
G01 X-0.2445 Y0.4275 
G01 X-0.2485 Y0.4315 
G01 X-0.2517 Y0.4363 
G01 X-0.2528 Y0.4390 
G01 X-0.3014 Y0.4390 
G01 X-0.3042 Y0.4397 
G01 X-0.3068 Y0.4412 
G01 X-0.3088 Y0.4432 
G01 X-0.3140 Y0.4484 
G01 X-0.3140 Y0.3235 
G01 X-0.3147 Y0.3208 
G01 X-0.3162 Y0.3182 
G01 X-0.3182 Y0.3162 
G01 X-0.3432 Y0.2912 
G01 X-0.3458 Y0.2897 
G01 X-0.3485 Y0.2890 
G01 X-0.3514 Y0.2890 
G01 X-0.4954 Y0.2890 
G01 X-0.5140 Y0.2704 
G01 X-0.5140 Y0.2028 
G01 X-0.5113 Y0.2017 
G01 X-0.5065 Y0.1985 
G01 X-0.5025 Y0.1945 
G01 X-0.4993 Y0.1897 
G01 X-0.4971 Y0.1845 
G01 X-0.4960 Y0.1789 
G01 X-0.4960 Y0.1211 
G01 X-0.4971 Y0.1155 
G01 X-0.4993 Y0.1103 
G01 X-0.5025 Y0.1055 
G01 X-0.5065 Y0.1015 
G01 X-0.5113 Y0.0983 
G01 X-0.5165 Y0.0961 
G01 X-0.5221 Y0.0950 
G01 X-0.5279 Y0.0950 
G01 X-0.5335 Y0.0961 
G01 X-0.5387 Y0.0983 
G01 X-0.5435 Y0.1015 
G01 X-0.5475 Y0.1055 
G01 X-0.5507 Y0.1103 
G01 X-0.5529 Y0.1155 
G01 X-0.5540 Y0.1211 
G01 X-0.5540 Y0.1789 
G01 X-0.5529 Y0.1845 
G01 X-0.5507 Y0.1897 
G01 X-0.5475 Y0.1945 
G01 X-0.5435 Y0.1985 
G01 X-0.5387 Y0.2017 
G01 X-0.5360 Y0.2028 
G01 X-0.5360 Y0.2735 
G01 X-0.5360 Y0.2764 
G01 X-0.5352 Y0.2792 
G01 X-0.5338 Y0.2818 
G01 X-0.5088 Y0.3068 
G01 X-0.5068 Y0.3088 
G01 X-0.5042 Y0.3102 
G01 X-0.5014 Y0.3110 
G01 X-0.3546 Y0.3110 
G01 X-0.3360 Y0.3296 
G01 X-0.3360 Y0.4764 
G01 X-0.3360 Y0.5454 
G01 X-0.3412 Y0.5506 
G01 X-0.8453 Y0.5506 
G01 X-0.8457 Y0.5502 
G01 X-0.8468 Y0.5498 
G01 X-0.9130 Y0.5498 
G01 X-0.9141 Y0.5502 
G01 X-0.9149 Y0.5511 
G01 X-0.9154 Y0.5522 
G00 Z0.0200 
G00 X-0.9154 Y0.5777 
G01 Z-0.0030 F8.00  
G01 X-0.9154 Y0.5967 F8.00  
G01 X-0.9149 Y0.5978 
G01 X-0.9141 Y0.5986 
G01 X-0.9130 Y0.5991 
G01 X-0.8468 Y0.5991 
G01 X-0.8457 Y0.5986 
G01 X-0.8453 Y0.5982 
G01 X-0.3137 Y0.5982 
G01 X-0.3108 Y0.5982 
G01 X-0.3080 Y0.5975 
G01 X-0.3054 Y0.5960 
G01 X-0.2704 Y0.5610 
G01 X-0.2528 Y0.5610 
G01 X-0.2517 Y0.5637 
G01 X-0.2485 Y0.5685 
G01 X-0.2445 Y0.5725 
G01 X-0.2397 Y0.5757 
G01 X-0.2345 Y0.5779 
G01 X-0.2289 Y0.5790 
G01 X-0.1711 Y0.5790 
G01 X-0.1655 Y0.5779 
G01 X-0.1603 Y0.5757 
G01 X-0.1555 Y0.5725 
G01 X-0.1515 Y0.5685 
G01 X-0.1483 Y0.5637 
G01 X-0.1470 Y0.5606 
G01 X-0.1458 Y0.5602 
G01 X-0.1432 Y0.5588 
G01 X-0.1412 Y0.5568 
G01 X-0.1182 Y0.5338 
G01 X-0.1162 Y0.5318 
G01 X-0.1147 Y0.5292 
G01 X-0.1140 Y0.5264 
G01 X-0.1140 Y0.1735 
G01 X-0.1147 Y0.1708 
G01 X-0.1162 Y0.1682 
G01 X-0.1182 Y0.1662 
G01 X-0.1432 Y0.1412 
G01 X-0.1458 Y0.1397 
G01 X-0.1485 Y0.1390 
G01 X-0.1514 Y0.1390 
G01 X-0.3960 Y0.1390 
G01 X-0.3960 Y0.1211 
G01 X-0.3971 Y0.1155 
G01 X-0.3993 Y0.1103 
G01 X-0.4025 Y0.1055 
G01 X-0.4065 Y0.1015 
G01 X-0.4113 Y0.0983 
G01 X-0.4165 Y0.0961 
G01 X-0.4221 Y0.0950 
G01 X-0.4279 Y0.0950 
G01 X-0.4335 Y0.0961 
G01 X-0.4387 Y0.0983 
G01 X-0.4435 Y0.1015 
G01 X-0.4475 Y0.1055 
G01 X-0.4507 Y0.1103 
G01 X-0.4529 Y0.1155 
G01 X-0.4540 Y0.1211 
G01 X-0.4540 Y0.1789 
G01 X-0.4529 Y0.1845 
G01 X-0.4507 Y0.1897 
G01 X-0.4475 Y0.1945 
G01 X-0.4435 Y0.1985 
G01 X-0.4387 Y0.2017 
G01 X-0.4335 Y0.2039 
G01 X-0.4279 Y0.2050 
G01 X-0.4221 Y0.2050 
G01 X-0.4165 Y0.2039 
G01 X-0.4113 Y0.2017 
G01 X-0.4065 Y0.1985 
G01 X-0.4025 Y0.1945 
G01 X-0.3993 Y0.1897 
G01 X-0.3971 Y0.1845 
G01 X-0.3960 Y0.1789 
G01 X-0.3960 Y0.1610 
G01 X-0.1546 Y0.1610 
G01 X-0.1360 Y0.1796 
G01 X-0.1360 Y0.5204 
G01 X-0.1497 Y0.5342 
G01 X-0.1515 Y0.5315 
G01 X-0.1555 Y0.5275 
G01 X-0.1603 Y0.5243 
G01 X-0.1655 Y0.5221 
G01 X-0.1711 Y0.5210 
G01 X-0.2289 Y0.5210 
G01 X-0.2345 Y0.5221 
G01 X-0.2397 Y0.5243 
G01 X-0.2445 Y0.5275 
G01 X-0.2485 Y0.5315 
G01 X-0.2517 Y0.5363 
G01 X-0.2528 Y0.5390 
G01 X-0.2764 Y0.5390 
G01 X-0.2792 Y0.5397 
G01 X-0.2818 Y0.5412 
G01 X-0.2838 Y0.5432 
G01 X-0.3168 Y0.5762 
G01 X-0.8453 Y0.5762 
G01 X-0.8457 Y0.5758 
G01 X-0.8468 Y0.5753 
G01 X-0.9130 Y0.5753 
G01 X-0.9141 Y0.5758 
G01 X-0.9149 Y0.5766 
G01 X-0.9154 Y0.5777 
G00 Z0.0200 
G00 X-0.9154 Y0.6545 
G01 Z-0.0030 F8.00  
G01 X-0.9154 Y0.6734 F8.00  
G01 X-0.9149 Y0.6745 
G01 X-0.9141 Y0.6754 
G01 X-0.9130 Y0.6758 
G01 X-0.8468 Y0.6758 
G01 X-0.8457 Y0.6754 
G01 X-0.8453 Y0.6750 
G01 X-0.4156 Y0.6750 
G01 X-0.4110 Y0.6796 
G01 X-0.4110 Y0.7235 
G01 X-0.4110 Y0.7264 
G01 X-0.4102 Y0.7292 
G01 X-0.4088 Y0.7318 
G01 X-0.3838 Y0.7568 
G01 X-0.3818 Y0.7588 
G01 X-0.3792 Y0.7602 
G01 X-0.3764 Y0.7610 
G01 X-0.2528 Y0.7610 
G01 X-0.2517 Y0.7637 
G01 X-0.2485 Y0.7685 
G01 X-0.2445 Y0.7725 
G01 X-0.2397 Y0.7757 
G01 X-0.2345 Y0.7779 
G01 X-0.2289 Y0.7790 
G01 X-0.1711 Y0.7790 
G01 X-0.1655 Y0.7779 
G01 X-0.1603 Y0.7757 
G01 X-0.1555 Y0.7725 
G01 X-0.1515 Y0.7685 
G01 X-0.1483 Y0.7637 
G01 X-0.1461 Y0.7585 
G01 X-0.1450 Y0.7529 
G01 X-0.1450 Y0.7471 
G01 X-0.1461 Y0.7415 
G01 X-0.1483 Y0.7363 
G01 X-0.1515 Y0.7315 
G01 X-0.1555 Y0.7275 
G01 X-0.1603 Y0.7243 
G01 X-0.1655 Y0.7221 
G01 X-0.1711 Y0.7210 
G01 X-0.2289 Y0.7210 
G01 X-0.2345 Y0.7221 
G01 X-0.2397 Y0.7243 
G01 X-0.2445 Y0.7275 
G01 X-0.2485 Y0.7315 
G01 X-0.2517 Y0.7363 
G01 X-0.2528 Y0.7390 
G01 X-0.3704 Y0.7390 
G01 X-0.3890 Y0.7204 
G01 X-0.3890 Y0.6735 
G01 X-0.3897 Y0.6708 
G01 X-0.3912 Y0.6682 
G01 X-0.3932 Y0.6662 
G01 X-0.4043 Y0.6552 
G01 X-0.4068 Y0.6537 
G01 X-0.4096 Y0.6530 
G01 X-0.4125 Y0.6530 
G01 X-0.8453 Y0.6530 
G01 X-0.8457 Y0.6526 
G01 X-0.8468 Y0.6521 
G01 X-0.9130 Y0.6521 
G01 X-0.9141 Y0.6526 
G01 X-0.9149 Y0.6534 
G01 X-0.9154 Y0.6545 
G00 Z0.0200 
G00 X-0.9154 Y0.7057 
G01 Z-0.0030 F8.00  
G01 X-0.9154 Y0.7246 F8.00  
G01 X-0.9149 Y0.7257 
G01 X-0.9141 Y0.7266 
G01 X-0.9130 Y0.7270 
G01 X-0.8468 Y0.7270 
G01 X-0.8457 Y0.7266 
G01 X-0.8453 Y0.7262 
G01 X-0.7144 Y0.7262 
G01 X-0.7110 Y0.7296 
G01 X-0.7110 Y1.0954 
G01 X-0.7119 Y1.0963 
G01 X-0.7127 Y1.0954 
G01 X-0.7372 Y1.0954 
G01 X-0.7546 Y1.1127 
G01 X-0.7546 Y1.1372 
G01 X-0.7372 Y1.1546 
G01 X-0.7127 Y1.1546 
G01 X-0.6954 Y1.1372 
G01 X-0.6954 Y1.1127 
G01 X-0.6963 Y1.1119 
G01 X-0.6912 Y1.1068 
G01 X-0.6897 Y1.1042 
G01 X-0.6890 Y1.1014 
G01 X-0.6890 Y1.0985 
G01 X-0.6890 Y0.7235 
G01 X-0.6897 Y0.7208 
G01 X-0.6912 Y0.7182 
G01 X-0.6932 Y0.7162 
G01 X-0.7031 Y0.7064 
G01 X-0.7056 Y0.7049 
G01 X-0.7084 Y0.7042 
G01 X-0.7113 Y0.7042 
G01 X-0.8453 Y0.7042 
G01 X-0.8457 Y0.7038 
G01 X-0.8468 Y0.7033 
G01 X-0.9130 Y0.7033 
G01 X-0.9141 Y0.7038 
G01 X-0.9149 Y0.7046 
G01 X-0.9154 Y0.7057 
G00 Z0.0200 
G00 X-0.9154 Y0.7313 
G01 Z-0.0030 F8.00  
G01 X-0.9154 Y0.7502 F8.00  
G01 X-0.9149 Y0.7513 
G01 X-0.9141 Y0.7521 
G01 X-0.9130 Y0.7526 
G01 X-0.8909 Y0.7526 
G01 X-0.8909 Y0.9655 
G01 X-0.8930 Y0.9676 
G01 X-0.9062 Y0.9545 
G01 X-0.9438 Y0.9545 
G01 X-0.9705 Y0.9812 
G01 X-0.9705 Y1.0188 
G01 X-0.9438 Y1.0455 
G01 X-0.9062 Y1.0455 
G01 X-0.8795 Y1.0188 
G01 X-0.8795 Y0.9860 
G01 X-0.8588 Y1.0068 
G01 X-0.8568 Y1.0088 
G01 X-0.8542 Y1.0102 
G01 X-0.8514 Y1.0110 
G01 X-0.7778 Y1.0110 
G01 X-0.7778 Y1.0222 
G01 X-0.7773 Y1.0234 
G01 X-0.7765 Y1.0242 
G01 X-0.7754 Y1.0246 
G01 X-0.7388 Y1.0246 
G01 X-0.7377 Y1.0242 
G01 X-0.7368 Y1.0234 
G01 X-0.7364 Y1.0222 
G01 X-0.7364 Y0.9777 
G01 X-0.7368 Y0.9766 
G01 X-0.7377 Y0.9758 
G01 X-0.7388 Y0.9753 
G01 X-0.7754 Y0.9753 
G01 X-0.7765 Y0.9758 
G01 X-0.7773 Y0.9766 
G01 X-0.7778 Y0.9777 
G01 X-0.7778 Y0.9890 
G01 X-0.8454 Y0.9890 
G01 X-0.8689 Y0.9655 
G01 X-0.8689 Y0.7526 
G01 X-0.8468 Y0.7526 
G01 X-0.8457 Y0.7521 
G01 X-0.8449 Y0.7513 
G01 X-0.8444 Y0.7502 
G01 X-0.8444 Y0.7313 
G01 X-0.8449 Y0.7302 
G01 X-0.8457 Y0.7293 
G01 X-0.8468 Y0.7289 
G01 X-0.9130 Y0.7289 
G01 X-0.9141 Y0.7293 
G01 X-0.9149 Y0.7302 
G01 X-0.9154 Y0.7313 
G00 Z0.0200 
G00 X-0.8183 Y0.4162 
G01 Z-0.0030 F8.00  
G01 X-0.7817 Y0.4162 F8.00  
G01 X-0.7806 Y0.4157 
G01 X-0.7797 Y0.4149 
G01 X-0.7793 Y0.4138 
G01 X-0.7793 Y0.3850 
G01 X-0.7797 Y0.3839 
G01 X-0.7806 Y0.3831 
G01 X-0.7817 Y0.3826 
G01 X-0.8183 Y0.3826 
G01 X-0.8194 Y0.3831 
G01 X-0.8203 Y0.3839 
G01 X-0.8207 Y0.3850 
G01 X-0.8207 Y0.3884 
G01 X-0.8259 Y0.3884 
G01 X-0.8281 Y0.3890 
G01 X-0.8485 Y0.3890 
G01 X-0.8514 Y0.3890 
G01 X-0.8542 Y0.3897 
G01 X-0.8568 Y0.3912 
G01 X-0.8838 Y0.4182 
G01 X-0.8852 Y0.4208 
G01 X-0.8860 Y0.4235 
G01 X-0.8860 Y0.4264 
G01 X-0.8860 Y0.4474 
G01 X-0.9130 Y0.4474 
G01 X-0.9141 Y0.4479 
G01 X-0.9149 Y0.4487 
G01 X-0.9154 Y0.4498 
G01 X-0.9154 Y0.4687 
G01 X-0.9149 Y0.4698 
G01 X-0.9141 Y0.4706 
G01 X-0.9130 Y0.4711 
G01 X-0.8468 Y0.4711 
G01 X-0.8457 Y0.4706 
G01 X-0.8449 Y0.4698 
G01 X-0.8444 Y0.4687 
G01 X-0.8444 Y0.4498 
G01 X-0.8449 Y0.4487 
G01 X-0.8457 Y0.4479 
G01 X-0.8468 Y0.4474 
G01 X-0.8640 Y0.4474 
G01 X-0.8640 Y0.4296 
G01 X-0.8454 Y0.4110 
G01 X-0.8264 Y0.4110 
G01 X-0.8235 Y0.4110 
G01 X-0.8213 Y0.4104 
G01 X-0.8207 Y0.4104 
G01 X-0.8207 Y0.4138 
G01 X-0.8203 Y0.4149 
G01 X-0.8194 Y0.4157 
G01 X-0.8183 Y0.4162 
G00 Z0.0200 
G00 X-0.7817 Y0.4674 
G01 Z-0.0030 F8.00  
G01 X-0.7806 Y0.4669 F8.00  
G01 X-0.7797 Y0.4661 
G01 X-0.7793 Y0.4650 
G01 X-0.7793 Y0.4362 
G01 X-0.7797 Y0.4351 
G01 X-0.7806 Y0.4343 
G01 X-0.7817 Y0.4338 
G01 X-0.8183 Y0.4338 
G01 X-0.8194 Y0.4343 
G01 X-0.8203 Y0.4351 
G01 X-0.8207 Y0.4362 
G01 X-0.8207 Y0.4558 
G01 X-0.8388 Y0.4738 
G01 X-0.8453 Y0.4738 
G01 X-0.8457 Y0.4734 
G01 X-0.8468 Y0.4730 
G01 X-0.9130 Y0.4730 
G01 X-0.9141 Y0.4734 
G01 X-0.9149 Y0.4743 
G01 X-0.9154 Y0.4754 
G01 X-0.9154 Y0.4943 
G01 X-0.9149 Y0.4954 
G01 X-0.9141 Y0.4962 
G01 X-0.9130 Y0.4967 
G01 X-0.8468 Y0.4967 
G01 X-0.8457 Y0.4962 
G01 X-0.8453 Y0.4958 
G01 X-0.8328 Y0.4958 
G01 X-0.8300 Y0.4951 
G01 X-0.8275 Y0.4936 
G01 X-0.8254 Y0.4916 
G01 X-0.8012 Y0.4674 
G01 X-0.7817 Y0.4674 
G00 Z0.0200 
G00 X-0.3338 Y0.7183 
G01 Z-0.0030 F8.00  
G01 X-0.3338 Y0.6817 F8.00  
G01 X-0.3343 Y0.6806 
G01 X-0.3351 Y0.6797 
G01 X-0.3362 Y0.6793 
G01 X-0.3390 Y0.6793 
G01 X-0.3390 Y0.6485 
G01 X-0.3397 Y0.6458 
G01 X-0.3412 Y0.6432 
G01 X-0.3432 Y0.6412 
G01 X-0.3549 Y0.6296 
G01 X-0.3574 Y0.6281 
G01 X-0.3602 Y0.6274 
G01 X-0.3631 Y0.6274 
G01 X-0.8453 Y0.6274 
G01 X-0.8457 Y0.6270 
G01 X-0.8468 Y0.6265 
G01 X-0.9130 Y0.6265 
G01 X-0.9141 Y0.6270 
G01 X-0.9149 Y0.6278 
G01 X-0.9154 Y0.6289 
G01 X-0.9154 Y0.6478 
G01 X-0.9149 Y0.6489 
G01 X-0.9141 Y0.6498 
G01 X-0.9130 Y0.6502 
G01 X-0.8468 Y0.6502 
G01 X-0.8457 Y0.6498 
G01 X-0.8453 Y0.6494 
G01 X-0.3662 Y0.6494 
G01 X-0.3610 Y0.6546 
G01 X-0.3610 Y0.6793 
G01 X-0.3650 Y0.6793 
G01 X-0.3661 Y0.6797 
G01 X-0.3669 Y0.6806 
G01 X-0.3674 Y0.6817 
G01 X-0.3674 Y0.7183 
G01 X-0.3669 Y0.7194 
G01 X-0.3661 Y0.7203 
G01 X-0.3650 Y0.7207 
G01 X-0.3362 Y0.7207 
G01 X-0.3351 Y0.7203 
G01 X-0.3343 Y0.7194 
G01 X-0.3338 Y0.7183 
G00 Z0.0200 
G00 X-0.7433 Y0.4162 
G01 Z-0.0030 F8.00  
G01 X-0.7067 Y0.4162 F8.00  
G01 X-0.7056 Y0.4157 
G01 X-0.7047 Y0.4149 
G01 X-0.7043 Y0.4138 
G01 X-0.7043 Y0.3850 
G01 X-0.7047 Y0.3839 
G01 X-0.7056 Y0.3831 
G01 X-0.7067 Y0.3826 
G01 X-0.7140 Y0.3826 
G01 X-0.7140 Y0.3514 
G01 X-0.7140 Y0.3485 
G01 X-0.7147 Y0.3458 
G01 X-0.7162 Y0.3432 
G01 X-0.7228 Y0.3366 
G01 X-0.7216 Y0.3336 
G01 X-0.7204 Y0.3279 
G01 X-0.7204 Y0.3221 
G01 X-0.7216 Y0.3164 
G01 X-0.7238 Y0.3110 
G01 X-0.7270 Y0.3061 
G01 X-0.7311 Y0.3020 
G01 X-0.7360 Y0.2988 
G01 X-0.7414 Y0.2966 
G01 X-0.7471 Y0.2954 
G01 X-0.7529 Y0.2954 
G01 X-0.7586 Y0.2966 
G01 X-0.7640 Y0.2988 
G01 X-0.7689 Y0.3020 
G01 X-0.7730 Y0.3061 
G01 X-0.7762 Y0.3110 
G01 X-0.7784 Y0.3164 
G01 X-0.7796 Y0.3221 
G01 X-0.7796 Y0.3279 
G01 X-0.7784 Y0.3336 
G01 X-0.7762 Y0.3390 
G01 X-0.7730 Y0.3439 
G01 X-0.7689 Y0.3480 
G01 X-0.7640 Y0.3512 
G01 X-0.7586 Y0.3534 
G01 X-0.7529 Y0.3546 
G01 X-0.7471 Y0.3546 
G01 X-0.7414 Y0.3534 
G01 X-0.7384 Y0.3522 
G01 X-0.7360 Y0.3546 
G01 X-0.7360 Y0.3826 
G01 X-0.7433 Y0.3826 
G01 X-0.7444 Y0.3831 
G01 X-0.7453 Y0.3839 
G01 X-0.7457 Y0.3850 
G01 X-0.7457 Y0.4138 
G01 X-0.7453 Y0.4149 
G01 X-0.7444 Y0.4157 
G01 X-0.7433 Y0.4162 
G00 Z0.0200 
G00 X-0.2289 Y0.6790 
G01 Z-0.0030 F8.00  
G01 X-0.1711 Y0.6790 F8.00  
G01 X-0.1655 Y0.6779 
G01 X-0.1603 Y0.6757 
G01 X-0.1555 Y0.6725 
G01 X-0.1515 Y0.6685 
G01 X-0.1483 Y0.6637 
G01 X-0.1461 Y0.6585 
G01 X-0.1450 Y0.6529 
G01 X-0.1450 Y0.6471 
G01 X-0.1461 Y0.6415 
G01 X-0.1483 Y0.6363 
G01 X-0.1515 Y0.6315 
G01 X-0.1555 Y0.6275 
G01 X-0.1603 Y0.6243 
G01 X-0.1655 Y0.6221 
G01 X-0.1711 Y0.6210 
G01 X-0.2289 Y0.6210 
G01 X-0.2345 Y0.6221 
G01 X-0.2397 Y0.6243 
G01 X-0.2445 Y0.6275 
G01 X-0.2485 Y0.6315 
G01 X-0.2517 Y0.6363 
G01 X-0.2528 Y0.6390 
G01 X-0.2704 Y0.6390 
G01 X-0.3054 Y0.6040 
G01 X-0.3080 Y0.6025 
G01 X-0.3108 Y0.6018 
G01 X-0.3137 Y0.6018 
G01 X-0.8453 Y0.6018 
G01 X-0.8457 Y0.6014 
G01 X-0.8468 Y0.6009 
G01 X-0.9130 Y0.6009 
G01 X-0.9141 Y0.6014 
G01 X-0.9149 Y0.6022 
G01 X-0.9154 Y0.6033 
G01 X-0.9154 Y0.6222 
G01 X-0.9149 Y0.6234 
G01 X-0.9141 Y0.6242 
G01 X-0.9130 Y0.6246 
G01 X-0.8468 Y0.6246 
G01 X-0.8457 Y0.6242 
G01 X-0.8453 Y0.6238 
G01 X-0.3168 Y0.6238 
G01 X-0.2838 Y0.6568 
G01 X-0.2818 Y0.6588 
G01 X-0.2792 Y0.6602 
G01 X-0.2764 Y0.6610 
G01 X-0.2528 Y0.6610 
G01 X-0.2517 Y0.6637 
G01 X-0.2485 Y0.6685 
G01 X-0.2445 Y0.6725 
G01 X-0.2397 Y0.6757 
G01 X-0.2345 Y0.6779 
G01 X-0.2289 Y0.6790 
G00 Z0.0200 
G00 X-0.2289 Y0.3790 
G01 Z-0.0030 F8.00  
G01 X-0.1711 Y0.3790 F8.00  
G01 X-0.1655 Y0.3779 
G01 X-0.1603 Y0.3757 
G01 X-0.1555 Y0.3725 
G01 X-0.1515 Y0.3685 
G01 X-0.1483 Y0.3637 
G01 X-0.1461 Y0.3585 
G01 X-0.1450 Y0.3529 
G01 X-0.1450 Y0.3471 
G01 X-0.1461 Y0.3415 
G01 X-0.1483 Y0.3363 
G01 X-0.1515 Y0.3315 
G01 X-0.1555 Y0.3275 
G01 X-0.1603 Y0.3243 
G01 X-0.1655 Y0.3221 
G01 X-0.1711 Y0.3210 
G01 X-0.2289 Y0.3210 
G01 X-0.2345 Y0.3221 
G01 X-0.2397 Y0.3243 
G01 X-0.2445 Y0.3275 
G01 X-0.2485 Y0.3315 
G01 X-0.2517 Y0.3363 
G01 X-0.2539 Y0.3415 
G01 X-0.2550 Y0.3471 
G01 X-0.2550 Y0.3529 
G01 X-0.2539 Y0.3585 
G01 X-0.2517 Y0.3637 
G01 X-0.2485 Y0.3685 
G01 X-0.2445 Y0.3725 
G01 X-0.2397 Y0.3757 
G01 X-0.2345 Y0.3779 
G01 X-0.2289 Y0.3790 
G00 Z0.0200 
G00 X-0.1420 Y0.1893 
G01 Z-0.0030 F8.00  
G01 X-0.1429 Y0.1849 F8.00  
G01 X-0.1446 Y0.1807 
G01 X-0.1471 Y0.1769 
G01 X-0.1503 Y0.1737 
G01 X-0.1519 Y0.1721 
G01 X-0.1557 Y0.1696 
G01 X-0.1599 Y0.1679 
G01 X-0.1643 Y0.1670 
G01 X-0.1688 Y0.1670 
G01 X-0.3703 Y0.1670 
G01 X-0.3710 Y0.1671 
G01 X-0.3747 Y0.1679 
G01 X-0.3789 Y0.1696 
G01 X-0.3827 Y0.1721 
G01 X-0.3858 Y0.1753 
G01 X-0.3860 Y0.1755 
G01 X-0.3884 Y0.1791 
G01 X-0.3895 Y0.1819 
G01 X-0.3901 Y0.1833 
G01 X-0.3953 Y0.1958 
G01 X-0.4052 Y0.2057 
G01 X-0.4180 Y0.2110 
G01 X-0.4320 Y0.2110 
G01 X-0.4448 Y0.2057 
G01 X-0.4547 Y0.1957 
G01 X-0.4562 Y0.1936 
G01 X-0.4571 Y0.1922 
G01 X-0.4587 Y0.1906 
G01 X-0.4603 Y0.1890 
G01 X-0.4625 Y0.1875 
G01 X-0.4641 Y0.1865 
G01 X-0.4673 Y0.1851 
G01 X-0.4682 Y0.1847 
G01 X-0.4709 Y0.1842 
G01 X-0.4727 Y0.1838 
G01 X-0.4749 Y0.1838 
G01 X-0.4772 Y0.1838 
G01 X-0.4789 Y0.1842 
G01 X-0.4817 Y0.1847 
G01 X-0.4822 Y0.1849 
G01 X-0.4859 Y0.1864 
G01 X-0.4882 Y0.1880 
G01 X-0.4896 Y0.1889 
G01 X-0.4912 Y0.1905 
G01 X-0.4928 Y0.1921 
G01 X-0.4943 Y0.1943 
G01 X-0.4952 Y0.1957 
G01 X-0.4997 Y0.2001 
G01 X-0.5027 Y0.2032 
G01 X-0.5029 Y0.2034 
G01 X-0.5037 Y0.2046 
G01 X-0.5054 Y0.2071 
G01 X-0.5061 Y0.2089 
G01 X-0.5071 Y0.2113 
G01 X-0.5077 Y0.2142 
G01 X-0.5080 Y0.2157 
G01 X-0.5080 Y0.2203 
G01 X-0.5080 Y0.2607 
G01 X-0.5071 Y0.2651 
G01 X-0.5054 Y0.2693 
G01 X-0.5029 Y0.2731 
G01 X-0.4997 Y0.2763 
G01 X-0.4981 Y0.2779 
G01 X-0.4943 Y0.2804 
G01 X-0.4901 Y0.2821 
G01 X-0.4857 Y0.2830 
G01 X-0.4812 Y0.2830 
G01 X-0.3602 Y0.2830 
G01 X-0.3466 Y0.2830 
G01 X-0.3404 Y0.2856 
G01 X-0.3170 Y0.3090 
G01 X-0.3106 Y0.3154 
G01 X-0.3080 Y0.3216 
G01 X-0.3080 Y0.4123 
G01 X-0.3071 Y0.4167 
G01 X-0.3054 Y0.4209 
G01 X-0.3029 Y0.4247 
G01 X-0.2997 Y0.4279 
G01 X-0.2959 Y0.4304 
G01 X-0.2917 Y0.4321 
G01 X-0.2873 Y0.4330 
G01 X-0.2827 Y0.4330 
G01 X-0.2658 Y0.4330 
G01 X-0.2613 Y0.4321 
G01 X-0.2571 Y0.4304 
G01 X-0.2534 Y0.4279 
G01 X-0.2502 Y0.4247 
G01 X-0.2457 Y0.4202 
G01 X-0.2422 Y0.4179 
G01 X-0.2390 Y0.4147 
G01 X-0.2365 Y0.4109 
G01 X-0.2350 Y0.4075 
G01 X-0.2347 Y0.4067 
G01 X-0.2338 Y0.4023 
G01 X-0.2338 Y0.4000 
G01 X-0.2338 Y0.3978 
G01 X-0.2347 Y0.3933 
G01 X-0.2364 Y0.3891 
G01 X-0.2389 Y0.3854 
G01 X-0.2421 Y0.3822 
G01 X-0.2457 Y0.3798 
G01 X-0.2557 Y0.3698 
G01 X-0.2610 Y0.3570 
G01 X-0.2610 Y0.3430 
G01 X-0.2557 Y0.3302 
G01 X-0.2458 Y0.3203 
G01 X-0.2330 Y0.3150 
G01 X-0.1627 Y0.3150 
G01 X-0.1583 Y0.3141 
G01 X-0.1541 Y0.3124 
G01 X-0.1503 Y0.3099 
G01 X-0.1471 Y0.3067 
G01 X-0.1446 Y0.3029 
G01 X-0.1429 Y0.2987 
G01 X-0.1420 Y0.2943 
G01 X-0.1420 Y0.2897 
G01 X-0.1420 Y0.1893 
G00 Z0.0200 
G00 X-0.2888 Y0.5891 
G01 Z-0.0030 F8.00  
G01 X-0.2888 Y0.5891 F8.00  
G01 X-0.2891 Y0.5899 
G01 X-0.2905 Y0.5933 
G01 X-0.2914 Y0.5977 
G01 X-0.2914 Y0.6023 
G01 X-0.2911 Y0.6041 
G01 X-0.2905 Y0.6067 
G01 X-0.2888 Y0.6109 
G01 X-0.2863 Y0.6147 
G01 X-0.2831 Y0.6179 
G01 X-0.2779 Y0.6231 
G01 X-0.2764 Y0.6241 
G01 X-0.2741 Y0.6256 
G01 X-0.2699 Y0.6273 
G01 X-0.2655 Y0.6282 
G01 X-0.2610 Y0.6282 
G01 X-0.2588 Y0.6278 
G01 X-0.2565 Y0.6273 
G01 X-0.2523 Y0.6256 
G01 X-0.2511 Y0.6248 
G01 X-0.2486 Y0.6231 
G01 X-0.2457 Y0.6202 
G01 X-0.2422 Y0.6179 
G01 X-0.2390 Y0.6147 
G01 X-0.2365 Y0.6109 
G01 X-0.2350 Y0.6075 
G01 X-0.2347 Y0.6067 
G01 X-0.2338 Y0.6023 
G01 X-0.2338 Y0.6000 
G01 X-0.2338 Y0.5978 
G01 X-0.2347 Y0.5933 
G01 X-0.2364 Y0.5891 
G01 X-0.2389 Y0.5854 
G01 X-0.2421 Y0.5822 
G01 X-0.2457 Y0.5798 
G01 X-0.2485 Y0.5770 
G01 X-0.2508 Y0.5754 
G01 X-0.2523 Y0.5744 
G01 X-0.2537 Y0.5738 
G01 X-0.2565 Y0.5727 
G01 X-0.2572 Y0.5725 
G01 X-0.2609 Y0.5718 
G01 X-0.2655 Y0.5718 
G01 X-0.2698 Y0.5727 
G01 X-0.2699 Y0.5727 
G01 X-0.2741 Y0.5744 
G01 X-0.2771 Y0.5764 
G01 X-0.2779 Y0.5769 
G01 X-0.2863 Y0.5853 
G01 X-0.2876 Y0.5873 
G01 X-0.2888 Y0.5891 
G00 Z0.0200 
G00 X-0.2857 Y0.4670 
G01 Z-0.0030 F8.00  
G01 X-0.2901 Y0.4679 F8.00  
G01 X-0.2943 Y0.4696 
G01 X-0.2981 Y0.4721 
G01 X-0.3013 Y0.4753 
G01 X-0.3029 Y0.4769 
G01 X-0.3054 Y0.4807 
G01 X-0.3071 Y0.4849 
G01 X-0.3080 Y0.4893 
G01 X-0.3080 Y0.4938 
G01 X-0.3080 Y0.5086 
G01 X-0.3080 Y0.5109 
G01 X-0.3080 Y0.5131 
G01 X-0.3076 Y0.5151 
G01 X-0.3071 Y0.5176 
G01 X-0.3062 Y0.5197 
G01 X-0.3054 Y0.5217 
G01 X-0.3037 Y0.5243 
G01 X-0.3029 Y0.5255 
G01 X-0.3007 Y0.5277 
G01 X-0.2997 Y0.5287 
G01 X-0.2975 Y0.5301 
G01 X-0.2959 Y0.5312 
G01 X-0.2943 Y0.5319 
G01 X-0.2917 Y0.5330 
G01 X-0.2873 Y0.5338 
G01 X-0.2850 Y0.5338 
G01 X-0.2827 Y0.5338 
G01 X-0.2807 Y0.5334 
G01 X-0.2784 Y0.5330 
G01 X-0.2658 Y0.5330 
G01 X-0.2613 Y0.5321 
G01 X-0.2571 Y0.5304 
G01 X-0.2534 Y0.5279 
G01 X-0.2502 Y0.5247 
G01 X-0.2457 Y0.5202 
G01 X-0.2422 Y0.5179 
G01 X-0.2390 Y0.5147 
G01 X-0.2365 Y0.5109 
G01 X-0.2350 Y0.5075 
G01 X-0.2347 Y0.5067 
G01 X-0.2338 Y0.5023 
G01 X-0.2338 Y0.5000 
G01 X-0.2338 Y0.4978 
G01 X-0.2347 Y0.4933 
G01 X-0.2364 Y0.4891 
G01 X-0.2389 Y0.4854 
G01 X-0.2421 Y0.4822 
G01 X-0.2457 Y0.4798 
G01 X-0.2534 Y0.4721 
G01 X-0.2571 Y0.4696 
G01 X-0.2613 Y0.4679 
G01 X-0.2658 Y0.4670 
G01 X-0.2703 Y0.4670 
G01 X-0.2857 Y0.4670 
G00 Z0.0200 
G00 X-0.7546 Y1.2377 
G01 Z-0.0030 F8.00  
G01 X-0.7546 Y1.2622 F8.00  
G01 X-0.7372 Y1.2796 
G01 X-0.7127 Y1.2796 
G01 X-0.7012 Y1.2680 
G01 X-0.2226 Y1.2680 
G01 X-0.2181 Y1.2668 
G01 X-0.2139 Y1.2644 
G01 X-0.2106 Y1.2611 
G01 X-0.1889 Y1.2394 
G01 X-0.1856 Y1.2361 
G01 X-0.1832 Y1.2319 
G01 X-0.1820 Y1.2274 
G01 X-0.1820 Y0.8790 
G01 X-0.1711 Y0.8790 
G01 X-0.1655 Y0.8779 
G01 X-0.1603 Y0.8757 
G01 X-0.1555 Y0.8725 
G01 X-0.1515 Y0.8685 
G01 X-0.1483 Y0.8637 
G01 X-0.1461 Y0.8585 
G01 X-0.1450 Y0.8529 
G01 X-0.1450 Y0.8471 
G01 X-0.1461 Y0.8415 
G01 X-0.1483 Y0.8363 
G01 X-0.1515 Y0.8315 
G01 X-0.1555 Y0.8275 
G01 X-0.1603 Y0.8243 
G01 X-0.1655 Y0.8221 
G01 X-0.1711 Y0.8210 
G01 X-0.2289 Y0.8210 
G01 X-0.2345 Y0.8221 
G01 X-0.2397 Y0.8243 
G01 X-0.2445 Y0.8275 
G01 X-0.2458 Y0.8288 
G01 X-0.2606 Y0.8139 
G01 X-0.2639 Y0.8106 
G01 X-0.2681 Y0.8082 
G01 X-0.2726 Y0.8070 
G01 X-0.4390 Y0.8070 
G01 X-0.4390 Y0.6985 
G01 X-0.4397 Y0.6958 
G01 X-0.4412 Y0.6932 
G01 X-0.4432 Y0.6912 
G01 X-0.4537 Y0.6808 
G01 X-0.4562 Y0.6793 
G01 X-0.4590 Y0.6786 
G01 X-0.4619 Y0.6786 
G01 X-0.5514 Y0.6786 
G01 X-0.6235 Y0.6786 
G01 X-0.8453 Y0.6786 
G01 X-0.8457 Y0.6782 
G01 X-0.8468 Y0.6777 
G01 X-0.9130 Y0.6777 
G01 X-0.9141 Y0.6782 
G01 X-0.9149 Y0.6790 
G01 X-0.9154 Y0.6801 
G01 X-0.9154 Y0.6990 
G01 X-0.9149 Y0.7001 
G01 X-0.9141 Y0.7010 
G01 X-0.9130 Y0.7014 
G01 X-0.8468 Y0.7014 
G01 X-0.8457 Y0.7010 
G01 X-0.8453 Y0.7006 
G01 X-0.6360 Y0.7006 
G01 X-0.6360 Y0.7076 
G01 X-0.6433 Y0.7076 
G01 X-0.6444 Y0.7081 
G01 X-0.6453 Y0.7089 
G01 X-0.6457 Y0.7100 
