(/Applications/EAGLE/ulp/pcb-gcode.ulp)
(Copyright 2005 - 2009 by John Johnson)
(See readme.txt for licensing terms.)
(This file generated from the board:)
(.../Documents/eagle/CNC/A4982_R5.brd)
(Current profile is .../EAGLE/ulp/profiles/generic.pp  )
(This file generated 6/21/11 6:59 PM)
(Settings from pcb-machine.h)
(  Tool Size)
(0.0020 )
(Z Axis Settings)
(  High     Up        Down     Drill)
(1.2500 	0.0200 	-0.0030 	-0.1000 )
(spindle on time = 3.0000)
(milling depth = -0.0030)
(text depth = -0.0050)
(tool change at 0.0000 0.0000 1.2500 )
(feed rate xy = F8.00  )
(feed rate z  = F8.00  )
(Settings from pcb-defaults.h)
(Default isolate = 0.0020)
(isolate max = 0.0200)
(isolate step = 0.0040)
(Generated bottom outlines, bottom drill, )
(Unit of measure: inch)
( Tool|       Size       |  Min Sub |  Max Sub |   Count )
( T01  0.813mm 0.0320in 0.0320in 0.0354in )
( T02  1.016mm 0.0400in 0.0400in 0.0520in )
(Inch Mode)
G20
(Absolute Coordinates)
G90
M05
G00 Z1.2500 
G00 X0.0000 Y0.0000 
M06 T01  ; 0.0320 
G00 Z0.0200 
M03
G04 P3.000000
G00 X-0.2000 Y0.3500 
G01 Z-0.1000 F8.00  
G00 Z0.0200 
G00 X-0.2000 Y0.4500 
G01 Z-0.1000 F8.00  
G00 Z0.0200 
G00 X-0.2000 Y0.5500 
G01 Z-0.1000 F8.00  
G00 Z0.0200 
G00 X-0.2000 Y0.6500 
G01 Z-0.1000 F8.00  
G00 Z0.0200 
G00 X-0.2000 Y0.7500 
G01 Z-0.1000 F8.00  
G00 Z0.0200 
G00 X-0.2000 Y0.8500 
G01 Z-0.1000 F8.00  
G00 Z0.0200 
G00 X-0.4250 Y0.1500 
G01 Z-0.1000 F8.00  
G00 Z0.0200 
G00 X-0.4250 Y0.4500 
G01 Z-0.1000 F8.00  
G00 Z0.0200 
G00 X-0.4500 Y1.0250 
G01 Z-0.1000 F8.00  
G00 Z0.0200 
G00 X-0.4500 Y1.1250 
G01 Z-0.1000 F8.00  
G00 Z0.0200 
G00 X-0.5250 Y0.1500 
G01 Z-0.1000 F8.00  
G00 Z0.0200 
G00 X-0.5250 Y0.4500 
G01 Z-0.1000 F8.00  
G00 Z0.0200 
G00 X-0.7250 Y1.1250 
G01 Z-0.1000 F8.00  
G00 Z0.0200 
G00 X-0.7250 Y1.2500 
G01 Z-0.1000 F8.00  
G00 Z0.0200 
G00 X-0.7500 Y0.3250 
G01 Z-0.1000 F8.00  
G00 Z0.0200 
G00 X-1.2250 Y0.4250 
G01 Z-0.1000 F8.00  
G00 Z0.0200 
G00 X-1.2750 Y0.9500 
G01 Z-0.1000 F8.00  
G00 Z0.0200 
G00 X-1.2750 Y1.1250 
G01 Z-0.1000 F8.00  
G00 Z0.0200 
G00 X-1.2750 Y1.2500 
G01 Z-0.1000 F8.00  
G00 Z0.0200 
G00 X-1.3250 Y0.4250 
G01 Z-0.1000 F8.00  
G00 Z0.0200 
G00 X-1.4000 Y0.3250 
G01 Z-0.1000 F8.00  
G00 Z0.0200 
G00 X-1.4000 Y0.5000 
G01 Z-0.1000 F8.00  
G00 Z0.0200 
G00 X-1.4000 Y0.7000 
G01 Z-0.1000 F8.00  
G00 Z0.0200 
G00 X-1.4750 Y0.3750 
G01 Z-0.1000 F8.00  
G00 Z0.0200 
M05
G00 Z1.2500 
G00 X0.0000 Y0.0000 
M06 T02  ; 0.0400 
G00 Z0.0200 
M03
G04 P3.000000
G00 X-0.9250 Y1.0000 
G01 Z-0.1000 F8.00  
G00 Z0.0200 
G00 X-1.7750 Y0.1500 
G01 Z-0.1000 F8.00  
G00 Z0.0200 
G00 X-1.7750 Y0.2500 
G01 Z-0.1000 F8.00  
G00 Z0.0200 
G00 X-1.7750 Y0.3500 
G01 Z-0.1000 F8.00  
G00 Z0.0200 
G00 X-1.7750 Y0.4500 
G01 Z-0.1000 F8.00  
G00 Z0.0200 
G00 X-1.7750 Y0.5500 
G01 Z-0.1000 F8.00  
G00 Z0.0200 
G00 X-1.7750 Y0.6500 
G01 Z-0.1000 F8.00  
G00 Z0.0200 
G00 X-1.7750 Y0.7500 
G01 Z-0.1000 F8.00  
G00 Z0.0200 
G00 X-1.7750 Y0.8500 
G01 Z-0.1000 F8.00  
G00 Z0.0200 
G00 X-1.7750 Y0.9500 
G01 Z-0.1000 F8.00  
G00 Z0.0200 
G00 X-1.7750 Y1.0500 
G01 Z-0.1000 F8.00  
G00 Z0.0200 
G00 X-1.7750 Y1.1500 
G01 Z-0.1000 F8.00  
G00 Z0.0200 
G00 X-1.7750 Y1.2500 
G01 Z-0.1000 F8.00  
G00 Z0.0200 
G00 X-1.7750 Y1.3500 
G01 Z-0.1000 F8.00  
G00 Z0.0200 
G00 Z1.2500 
M05
M02
G00 X0.0000 Y0.0000 
